!!!!SEGMENT: pl-cz--iii-206--001-001_engel-jan--sinfonia-ex-f-presto.krn
!!!cenid: 17xx:885
!!!COM: Engel, Jan
!!!COM-rismid: pe30009138
!!!CDT: <1772->1788
!!!CNT:
!!!OPR: Sinfonia ex F
!!!OTL: Presto
!!!OMV: 001
!!!PDT: 1787
!!!AGN: Secular
!!!SMS-siglum: PL-CZ
!!!SMS-shelfmark: III-206
!!!SMS-shelfwork: 001-001 M
!!!SMS-variant:
!!!SMS-altvar:
!!!NIFC-rismid: 300000297
!!!URL-scan: http://repozytorium.nifc.pl/skany/pl-cz-nut--iii-206
!!!ONB-nifc: UWAGA: części Sinfonii: Presto, Andante, Presto
!!!key: F
**kern	**dynam	**kern	**dynam	**kern	**dynam	**kern	**dynam	**kern	**kern	**kern	**dynam	**kern	**dynam	**kern
*part9	*part9	*part8	*part8	*part7	*part7	*part6	*part6	*part5	*part4	*part3	*part3	*part2	*part2	*part1
*staff9	*	*staff8	*	*staff7	*	*staff6	*	*staff5	*staff4	*staff3	*	*staff2	*	*staff1
*I"Baſso.	*	*I"Alto Viola	*	*I"Violino 2do	*	*I"Violino Primo	*	*I"Corno 2do Ex F.	*I"Cornu 1mo Ex. F	*I"Fagotto Obli	*	*I"Obe 2do	*	*I"Oboe Primo
*I'b	*	*I'a-vla	*	*I'vl 2	*	*I'vl 1	*	*I'cor 2 in F	*I'cor 1 in F	*I'fag 1	*	*I'ob 2	*	*I'ob 1
*Icbass	*	*Iviola	*	*Ivioln	*	*Ivioln	*	*Icor	*Icor	*Ifagot	*	*Ioboe	*	*Ioboe
*ICstr	*	*ICstr	*	*ICstr	*	*ICstr	*	*ICbrass	*ICbrass	*ICww	*	*ICww	*	*ICww
*group	*group	*group3	*group3	*group3	*group3	*group3	*group3	*group2	*group2	*group1	*group1	*group1	*group1	*group1
*clefF4	*	*clefC3	*	*clefG2	*	*clefG2	*	*clefG2	*clefG2	*clefF4	*	*clefG2	*	*clefG2
*ITrd0c0	*	*	*	*	*	*	*	*ITrd4c7	*ITrd4c7	*	*	*	*	*
*k[b-]	*	*k[b-]	*	*k[b-]	*	*k[b-]	*	*k[b-]	*k[b-]	*k[b-]	*	*k[b-]	*	*k[b-]
*F:	*	*F:	*	*F:	*	*F:	*	*F:	*F:	*F:	*	*F:	*	*F:
*M4/4	*	*M4/4	*	*M4/4	*	*M4/4	*	*M4/4	*M4/4	*M4/4	*	*M4/4	*	*M4/4
*met(c)	*	*met(c)	*	*met(c)	*	*met(c)	*	*met(c)	*met(c)	*met(c)	*	*met(c)	*	*met(c)
*>[A,A,B,B]	*	*>[A,A,B,B]	*	*>[A,A,B,B]	*	*>[A,A,B,B]	*	*>[A,A,B,B]	*>[A,A,B,B]	*>[A,A,B,B]	*	*>[A,A,B,B]	*	*>[A,A,B,B]
=1	=1	=1	=1	=1	=1	=1	=1	=1	=1	=1	=1	=1	=1	=1
*>A	*	*>A	*	*>A	*	*>A	*	*>A	*>A	*>A	*	*>A	*	*>A
*2\right	*	*	*	*	*	*	*	*	*2\right	*2\right	*	*	*	*
*	*	*	*	*^	*	*^	*	*	*	*	*	*	*	*
*	*	*	*	*	*	*	*	*	*	*	*	*tremolo	*	*	*	*
!LO:TX:a:i:t=Ark. No 6.	!	!	!	!	!	!	!	!	!	!	!	!	!	!LO:TX:a:t=1	!	!LO:TX:a:Bi:t=Preſto
!LO:TX:a:Bi:t=Presto.	!	!	!LO:DY:b:t=f.:rj	!LO:TX:a:Bi:t=Preſto	!	!	!LO:TX:a:Bi:t=Preſto	!	!	!LO:TX:a:Bi:t=Presto.	!LO:TX:a:Bi:t=Presto.	!LO:TX:a:Bi:t=Presto	!	!LO:TX:a:Bi:t=Presto	!	!
8F\L	.	8f\L	f	8ff/	8a\	.	8ff/	8a\	.	4A/	4f\	8F\L	.	1r	.	1r
!	!	!	!	!	!	!LO:DY:a:t=for	!	!	!	!	!	!	!	!	!	!
8F\	.	8f\	.	4ff/	4a\	f	4ff/	4a\	.	.	.	8F\	.	.	.	.
8F\	.	8f\	.	.	.	.	.	.	.	2A/	2f\	8F\	.	.	.	.
8F\J	.	8f\J	.	4ff/	4a\	.	4ff/	4a\	.	.	.	8F\J	.	.	.	.
*tremolo	*	*	*	*	*	*	*	*	*	*	*	*	*	*	*	*
!	!LO:DY:t=f.	!	!	!	!	!	!	!	!	!	!	!	!	!	!	!
8F\L	f	8f\L	.	.	.	.	.	.	.	.	.	8F\L	.	.	.	.
8F\	.	8f\	.	4ff/	4a\	.	4ff/	4a\	.	.	.	8F\	.	.	.	.
8F\	.	8f\	.	.	.	.	.	.	.	4A/	4f\	8F\	.	.	.	.
8F\J	.	8f\J	.	8ff/	8a\	.	8ff/	8a\	.	.	.	8F\J	.	.	.	.
=2	=2	=2	=2	=2	=2	=2	=2	=2	=2	=2	=2	=2	=2	=2	=2	=2
*	*	*2\right	*	*	*	*	*	*	*	*	*	*	*	*	*	*
*	*	*tremolo	*	*	*	*	*	*	*	*	*	*	*	*	*	*
!	!	!	!LO:DY:b:t=p.:rj	!	!	!	!	!	!	!	!	!	!	!	!LO:DY:b:t=p&colon;	!
8F\L	.	8f\L	p	8ff/	8a\	.	8ff/	8a\	.	4A/	4f\	8F\L	.	4r	p	4r
!	!	!	!	!	!	!LO:DY:a:t=pia	!	!	!	!	!	!	!	!	!	!
8F\	.	8f\	.	8r	2ryy	p	8r	2ryy	.	.	.	8F\	.	.	.	.
!	!	!	!	!	!	!	!	!	!	!	!	!	!LO:DY:b:t=p.	!	!	!
8F\	.	8f\	.	8bb-\	.	.	8ddd\	.	.	4r	4r	8F\	p	(<4b-/	.	4dd\
8F\J	.	8f\J	.	8r	.	.	8r	.	.	.	.	8F\J	.	.	.	.
!	!LO:DY:t=p.	!	!	!	!	!	!	!	!	!	!	!	!	!	!	!
8F\L	p	8f\L	.	8aa\	.	.	8ccc\	.	.	2r	2r	8F\L	.	4a/	.	4cc\
8F\	.	8f\	.	8r	4ryy	.	8r	4ryy	.	.	.	8F\	.	.	.	.
8F\	.	8f\	.	8gg\	.	.	8bb-\	.	.	.	.	8F\	.	4g/)	.	4b-\
*	*	*	*	*v	*v	*	*	*	*	*	*	*	*	*	*	*
*	*	*	*	*	*	*v	*v	*	*	*	*	*	*	*	*
8F\J	.	8f\J	.	8r	.	8r	.	.	.	8F\J	.	.	.	.
=3	=3	=3	=3	=3	=3	=3	=3	=3	=3	=3	=3	=3	=3	=3
*	*	*	*	*^	*	*^	*	*	*	*	*	*	*	*
!	!	!	!	!	!	!LO:DY:b:t=for	!	!	!	!	!	!	!	!	!LO:DY:b:rj	!
8F\L	.	8f\L	.	8ff\	8ryy	f	8aa\	8re	.	4A/	4f\	8F\L	.	4f/	f	4a/
8F\	.	8f\	.	4ff/	4a\	.	4ff/	4a\	.	.	.	8F\	.	.	.	.
!	!	!	!	!	!	!	!	!	!	!	!	!	!LO:DY:b:t=f.	!	!	!
8F\	.	8f\	.	.	.	.	.	.	.	2A/	2f\	8F\	f	4r	.	4r
!	!	!	!LO:DY:b:t=f.	!	!	!	!	!	!	!	!	!	!	!	!	!
8F\J	.	8f\J	f	4ff/	4a\	.	4ff/	4a\	.	.	.	8F\J	.	.	.	.
!	!LO:DY:t=f.	!	!	!	!	!	!	!	!	!	!	!	!	!	!	!
8F\L	f	8f\L	.	.	.	.	.	.	.	.	.	8F\L	.	2r	.	2r
8F\	.	8f\	.	4ff/	4a\	.	4ff/	4a\	.	.	.	8F\	.	.	.	.
8F\	.	8f\	.	.	.	.	.	.	.	4A/	4f\	8F\	.	.	.	.
8F\J	.	8f\J	.	8ff/	8a\	.	8ff/	8a\	.	.	.	8F\J	.	.	.	.
=4	=4	=4	=4	=4	=4	=4	=4	=4	=4	=4	=4	=4	=4	=4	=4	=4
!	!LO:DY:t=p.	!	!	!	!	!	!	!	!	!	!	!	!	!	!	!
8F\L	p	8f\L	.	8ff/	8a\	.	8ff/	8a\	.	4A/	4f\	8F\L	.	4r	.	4r
!	!	!	!	!	!	!	!	!	!	!	!	!	!LO:DY:b:t=p.	!	!	!
8F\	.	8f\	.	8r	2..ryy	.	8r	2..ryy	.	.	.	8F\	p	.	.	.
!	!	!	!	!	!	!LO:DY:a:t=pia	!	!	!	!	!	!	!	!	!	!
8F\	.	8f\	.	8dd\	.	p	8ddd\	.	.	4r	4r	8F\	.	(>4dd\	.	(>4bb-\
!	!	!	!LO:DY:b:t=p.	!	!	!	!	!	!	!	!	!	!	!	!	!
8F\J	.	8f\J	p	8r	.	.	8r	.	.	.	.	8F\J	.	.	.	.
8F\L	.	8f\L	.	8cc\	.	.	8ccc\	.	.	2r	2r	8F\L	.	4cc\	.	4aa\
8F\	.	8f\	.	8r	.	.	8r	.	.	.	.	8F\	.	.	.	.
8F\	.	8f\	.	8b-\	.	.	8bb-\	.	.	.	.	8F\	.	4b-\)	.	4gg\)
8F\J	.	8f\J	.	8r	.	.	8r	.	.	.	.	8F\J	.	.	.	.
=5	=5	=5	=5	=5	=5	=5	=5	=5	=5	=5	=5	=5	=5	=5	=5	=5
!	!	!	!	!	!	!LO:DY:b:t=for	!	!	!	!	!	!	!	!	!	!
!	!	!	!	!	!	!	!	!	!	!	!	!	!LO:DY:b	!	!	!
8F\L	.	8f\L	.	8a/	8ryy	f	8ff\	8ryy	.	4A/	4f\	8F\L	f	4a/	.	4ff\
8F\	.	8f\	.	4ff/	4a\	.	4ff/	4a\	.	.	.	8F\	.	.	.	.
8F\	.	8f\	.	.	.	.	.	.	.	2A/	2f\	8F\	.	4r	.	4r
!	!	!	!LO:DY:b:t=f.	!	!	!	!	!	!	!	!	!	!	!	!	!
8F\J	.	8f\J	f	4ff/	4a\	.	4ff/	4a\	.	.	.	8F\J	.	.	.	.
!	!LO:DY:t=f.	!	!	!	!	!	!	!	!	!	!	!	!LO:DY:b:t=p.	!	!	!
8F\L	f	8f\L	.	.	.	.	.	.	.	.	.	8F\L	p	2r	.	2r
8F\	.	8f\	.	4ff/	4a\	.	4ff/	4a\	.	.	.	8F\	.	.	.	.
8F\	.	8f\	.	.	.	.	.	.	.	4A/	4f\	8F\	.	.	.	.
8F\J	.	8f\J	.	8ff/	8a\	.	8ff/	8a\	.	.	.	8F\J	.	.	.	.
!	!	!	!	!LO:LB:g=original	!LO:LB:g=original	!	!	!	!	!	!	!	!	!	!	!
=6	=6	=6	=6	=6	=6	=6	=6	=6	=6	=6	=6	=6	=6	=6	=6	=6
!	!	!	!	!	!	!	!	!	!	!	!	!	!LO:DY:b:t=p.	!	!LO:DY:b:t=p&colon;	!
8F\L	.	8f\L	.	8ff/	8a\	.	8ff/	8a\	.	4A/	4f\	8F\L	p	4r	p	4r
8F\	.	8f\	.	8r	2ryy	.	8r	2..ryy	.	.	.	8F\	.	.	.	.
8F\	.	8f\	.	8bb-\	.	.	8ddd\	.	.	4r	4r	8F\	.	(<4b-/	.	4dd\
!	!LO:DY:t=p.	!	!LO:DY:b:t=p.	!	!	!	!	!	!	!	!	!	!	!	!	!
8F\J	p	8f\J	p	8r	.	.	8r	.	.	.	.	8F\J	.	.	.	.
8F\L	.	8f\L	.	8aa\	.	.	8ccc\	.	.	2r	2r	8F\L	.	4a/	.	4cc\
8F\	.	8f\	.	8r	4ryy	.	8r	.	.	.	.	8F\	.	.	.	.
!	!	!	!	!	!	!	!LO:LB:g=original	!	!	!	!	!	!	!	!	!
8F\	.	8f\	.	8gg\	.	.	8bb-\	.	.	.	.	8F\	.	4g/)	.	4b-\
*	*	*	*	*v	*v	*	*	*	*	*	*	*	*	*	*	*
8F\J	.	8f\J	.	8r	.	8r	.	.	.	.	8F\J	.	.	.	.
=7	=7	=7	=7	=7	=7	=7	=7	=7	=7	=7	=7	=7	=7	=7	=7
*	*	*	*	*^	*	*	*	*	*	*	*	*	*	*	*
!	!	!	!	!	!	!	!	!	!	!	!	!	!LO:DY:b:t=f.	!	!LO:DY:b:t=f&colon;:rj	!
8F\L	.	8f\L	.	8ff/	8a\	.	8aa\	8ryy	.	4A/	4f\	8F\L	f	4f/	f	4a/
8F\	.	8f\	.	4ff/	4a\	.	4ff/	4a\	.	.	.	8F\	.	.	.	.
8F\	.	8f\	.	.	.	.	.	.	.	2A/	2f\	8F\	.	4r	.	4r
!	!LO:DY:t=f.	!	!	!	!	!	!	!	!	!	!	!	!	!	!	!
8F\J	f	8f\J	f	4ff/	4a\	.	4ff/	4a\	.	.	.	8F\J	.	.	.	.
8F\L	.	8f\L	.	.	.	.	.	.	.	.	.	8F\L	.	2r	.	2r
8F\	.	8f\	.	4ff/	4a\	.	4ff/	4a\	.	.	.	8F\	.	.	.	.
8F\	.	8f\	.	.	.	.	.	.	.	4A/	4f\	8F\	.	.	.	.
8F\J	.	8f\J	.	8ff/	8a\	.	8ff/	8a\	.	.	.	8F\J	.	.	.	.
=8	=8	=8	=8	=8	=8	=8	=8	=8	=8	=8	=8	=8	=8	=8	=8	=8
!	!LO:DY:t=p.	!	!	!	!	!	!	!	!	!	!	!	!LO:DY:b:t=p&colon;	!	!	!
8F\L	p	8f\L	.	8ff/	8a\	.	8ff/	8a\	.	4A/	4f\	8F\L	p	4r	.	4r
*	*	*	*	*v	*v	*	*	*	*	*	*	*	*	*	*	*
8F\	.	8f\	.	8r	.	8r	2..ryy	.	.	.	8F\	.	.	.	.
8F\	.	8f\	.	8dd\|	.	8bb-\	.	.	4r	4r	8F\	.	4dd\	.	(>4bb-\
8F\J	.	8f\J	.	8r	.	8r	.	.	.	.	8F\J	.	.	.	.
8F\L	.	8f\L	.	8cc\|	.	8aa\	.	.	2r	2r	8F\L	.	4cc\	.	4aa\
8F\	.	8f\	.	8r	.	8r	.	.	.	.	8F\	.	.	.	.
8F\	.	8f\	.	8b-\|	.	8gg\	.	.	.	.	8F\	.	4b-\	.	4gg\)
8F\J	.	8f\J	.	8r	.	8r	.	.	.	.	8F\J	.	.	.	.
!	!	!LO:LB:g=original	!	!	!	!	!	!	!LO:LB:g=original	!	!	!LO:LB:g=original	!	!	!
*	*	*	*	*	*	*v	*v	*	*	*	*	*	*	*	*
=9	=9	=9	=9	=9	=9	=9	=9	=9	=9	=9	=9	=9	=9	=9
4F\	.	4f\	.	(>16ff\LL	.	(>16ff\LL	.	4A/	4f\	4F\	.	4a/	.	4ff\
.	.	.	.	16aa\	.	16aa\	.	.	.	.	.	.	.	.
.	.	.	.	16gg\	.	16gg\	.	.	.	.	.	.	.	.
.	.	.	.	16ff\JJ)	.	16ff\JJ)	.	.	.	.	.	.	.	.
4r	.	4r	.	8ee\L	.	8ee\L	.	4r	4r	4r	.	4r	.	4r
.	.	.	.	8dd\J	.	8dd\J	.	.	.	.	.	.	.	.
!	!	!	!	!LO:N:vis=8.	!	!	!	!	!	!	!	!	!	!LO:LB:g=original
8r	.	8r	.	8cc\L|	.	8cc\L|	.	8r	8r	8r	.	8r	.	8r
!LO:TX:a:t=P:problem=mixed beam	!	!LO:TX:a:t=P:problem=mixed beam	!	!	!	!	!	!LO:TX:a:t=P:problem=mixed beam	!	!LO:TX:a:t=P:problem=mixed beam	!	!	!	!
!	!	!	!	!	!	!	!	!	!	!	!	!	!LO:DY:b:rj	!
8B-\L	.	8b-\L	.	8bb-\|	.	8bb-\|	.	8g\L	8b-\L	8B-\L	.	8dd\L	f	8bb-\L|
8c\	.	8cc\	.	8aa\|	.	8aa\|	.	8f\	8a\	8c\	.	8cc\	.	8aa\|
8C/J	.	8c/J	.	8gg\J|	.	8gg\J|	.	8c/J	8g\J	8C/J	.	8b-\J	.	8gg\J|
!LO:LB:g=original	!	!	!	!	!	!	!	!	!LO:LB:g=original	!LO:LB:g=original	!	!	!	!
=10	=10	=10	=10	=10	=10	=10	=10	=10	=10	=10	=10	=10	=10	=10
4F\	.	4f\	.	(>16ff\LL	.	(>16ff\LL	.	4A/	4f\	4F\	.	4a/	.	4ff\
.	.	.	.	16aa\	.	16aa\	.	.	.	.	.	.	.	.
.	.	.	.	16gg\	.	16gg\	.	.	.	.	.	.	.	.
.	.	.	.	16ff\JJ)	.	16ff\JJ)	.	.	.	.	.	.	.	.
4r	.	4r	.	8ee\L	.	8ee\L	.	4r	4r	4r	.	4r	.	4r
.	.	.	.	8dd\J	.	8dd\J	.	.	.	.	.	.	.	.
8r	.	8r	.	8cc\L	.	8cc\L|	.	8r	8r	8r	.	8r	.	8r
!LO:TX:a:t=P:problem=mixed beam	!	!LO:TX:a:t=P:problem=mixed beam	!	!	!	!	!	!LO:TX:a:t=P:problem=mixed beam	!	!LO:TX:a:t=P:problem=mixed beam	!	!	!	!
8B-\L	.	8b-\L	.	8bb-\	.	8bb-\|	.	8g\L	8b-\L	8B-\L	.	8dd\L	.	8bb-\L|
8c\	.	8cc\	.	8aa\	.	8aa\|	.	8f\	8a\	8c\	.	8cc\	.	8aa'\
8AA/J	.	8A/J	.	8gg\J	.	8gg\J|	.	8c/J	8g\J	8C/J	.	8b-\J	.	8gg'\J
!	!	!	!	!LO:LB:g=original	!	!	!	!	!	!	!	!	!	!
=11	=11	=11	=11	=11	=11	=11	=11	=11	=11	=11	=11	=11	=11	=11
4F\	.	4f\	.	8ff\L|	.	8ff\L|	.	4A/	4f\	4F\	.	8a'\L	.	8ff'\L
.	.	.	.	8cc\|	.	8cc\|	.	.	.	.	.	8cc'\	.	8cc'\
4r	.	4r	.	8dd\|	.	8dd\|	.	4r	4r	4r	.	8dd'\	.	8dd'\
.	.	.	.	8a\J|	.	8a\J|	.	.	.	.	.	8a'\J	.	8a'\J
8r	.	8r	.	8b-/L|	.	8b-/L|	.	2r	2r	8r	.	8b-'/L	.	8b-'/L
8F\L	.	8f\L	.	8f/|	.	8f/	.	.	.	8F\L	.	8f'/	.	8f'/
8A\	.	8a\	.	8g/|	.	8g/	.	.	.	8G\	.	8g'/	.	8g'/
8D\J	.	8d\J	.	8d/J|	.	8d/J	.	.	.	8D\J	.	8d'/J	.	8d'/J
!	!	!	!	!	!	!LO:LB:g=original	!	!	!	!	!	!	!	!
=12	=12	=12	=12	=12	=12	=12	=12	=12	=12	=12	=12	=12	=12	=12
!	!	!	!	!	!	!	!	!LO:TX:a:t=7	!LO:TX:a:t=7	!	!	!	!	!
8E\L	.	8e\L	.	8d/L	.	8d/L	.	00r	00r	8E\L	.	8c/L	.	8e/L
8BBn\J	.	8Bn\J	.	8Bn/J	.	8Bn/J	.	.	.	8BBn\J	.	8d/J	.	8f/J
!	!	!	!	!LO:N:vis=4.	!	!	!	!	!	!	!	!	!	!
4C/	.	4c\	.	4c/	.	4c/	.	.	.	4C/	.	4e/	.	4g/
2rC	.	2r	.	2r	.	2r	.	.	.	2r	.	2re	.	2rg
=13	=13	=13	=13	=13	=13	=13	=13	=13	=13	=13	=13	=13	=13	=13
!	!	!	!	!	!	!	!	!	!	!	!	!LO:TX:a:t=P:problem=powinno być "6" taktów pauzy	!	!
!	!	!	!	!	!LO:DY:a:t=pia	!	!	!	!	!	!	!LO:TX:a:t=5	!	!
8C/L	.	4g\	.	8r	p	8r	.	.	.	8r	.	00r	.	00r
!	!	!	!	!	!	!	!	!	!	!	!LO:DY:b:rj	!	!	!
8C/	.	.	.	4bb-\	.	4bb-\	.	.	.	4G\	f	.	.	.
8C/	.	4r	.	.	.	.	.	.	.	.	.	.	.	.
8C/J	.	.	.	(>4gg\	.	(>4gg\	.	.	.	4B-\	.	.	.	.
!	!LO:DY:t=p.	!	!	!	!	!	!	!	!	!	!	!	!	!
8C/L	p	2r	.	.	.	.	.	.	.	.	.	.	.	.
!	!	!	!	!	!	!	!	!	!	!	!LO:DY:b:t=p&colon;	!	!	!
8C/	.	.	.	4ee\	.	4ee\	.	.	.	4A\	p	.	.	.
8C/	.	.	.	.	.	.	.	.	.	.	.	.	.	.
8C/J	.	.	.	8b-\)	.	8b-\)	.	.	.	8G\	.	.	.	.
=14	=14	=14	=14	=14	=14	=14	=14	=14	=14	=14	=14	=14	=14	=14
8C/L	.	8r	.	(>8b-/	.	(<8b-/	.	.	.	4A\	.	.	.	.
8C/	.	4e\	.	4g/	.	4g/	.	.	.	.	.	.	.	.
8C/	.	.	.	.	.	.	.	.	.	4r	.	.	.	.
8C/J	.	4g\	.	8e/)	.	8e/)	.	.	.	.	.	.	.	.
8C/L	.	.	.	2et/	.	2e/	.	.	.	2r	.	.	.	.
8C/	.	4f\	.	.	.	.	.	.	.	.	.	.	.	.
8C/	.	.	.	.	.	.	.	.	.	.	.	.	.	.
8C/J	.	8e\	.	.	.	.	.	.	.	.	.	.	.	.
=15	=15	=15	=15	=15	=15	=15	=15	=15	=15	=15	=15	=15	=15	=15
8C/L	.	4f\	.	8r	.	8r	.	.	.	8r	.	.	.	.
!	!	!	!	!	!	!	!	!	!	!	!LO:DY:b:rj	!	!	!
8C/	.	.	.	4ccc\	.	4ccc\	.	.	.	4A\	f	.	.	.
8C/	.	4r	.	.	.	.	.	.	.	.	.	.	.	.
8C/J	.	.	.	(>4aa\	.	(>4aa\	.	.	.	4c\	.	.	.	.
8C/L	.	2rA	.	.	.	.	.	.	.	.	.	.	.	.
!	!	!	!	!	!	!	!	!	!	!	!LO:DY:b:t=p.	!	!	!
8C/	.	.	.	4ff\	.	4ff\	.	.	.	4B-\	p	.	.	.
8C/	.	.	.	.	.	.	.	.	.	.	.	.	.	.
8C/J	.	.	.	8cc\)	.	8cc\)	.	.	.	8A\	.	.	.	.
!	!	!LO:LB:g=original	!	!	!	!	!	!	!	!	!	!	!	!
=16	=16	=16	=16	=16	=16	=16	=16	=16	=16	=16	=16	=16	=16	=16
8C/L	.	8r	.	8cc\	.	8cc\	.	0r	0r	4Bn\	.	.	.	.
8C/	.	4f\	.	4a/	.	4f/	.	.	.	.	.	.	.	.
8C/	.	.	.	.	.	.	.	.	.	4r	.	.	.	.
8C/J	.	4a\	.	8f/	.	8d/	.	.	.	.	.	.	.	.
8C/L	.	.	.	2fT/	.	2dT/	.	.	.	2r	.	.	.	.
8C/	.	4g\	.	.	.	.	.	.	.	.	.	.	.	.
8C/	.	.	.	.	.	.	.	.	.	.	.	.	.	.
8C/J	.	8f\	.	.	.	.	.	.	.	.	.	.	.	.
!	!	!	!	!	!	!	!	!	!	!LO:LB:g=original	!	!	!	!
=17	=17	=17	=17	=17	=17	=17	=17	=17	=17	=17	=17	=17	=17	=17
8D\L	.	4g\	.	8r	.	8r	.	.	.	8r	.	0r	.	0r
8D\	.	.	.	(>4ff\	.	4ff\	.	.	.	4Bn\	.	.	.	.
8D\	.	4r	.	.	.	.	.	.	.	.	.	.	.	.
8D\J	.	.	.	4dd\	.	4dd\	.	.	.	4d\	.	.	.	.
8D\L	.	2r	.	.	.	.	.	.	.	.	.	.	.	.
8D\	.	.	.	4bn\)	.	4bn\	.	.	.	4c\	.	.	.	.
8D\	.	.	.	.	.	.	.	.	.	.	.	.	.	.
!	!	!	!	!LO:LB:g=original	!	!	!	!	!	!	!	!	!	!
8D\J	.	.	.	8f/	.	8f/	.	.	.	8Bn\	.	.	.	.
=18	=18	=18	=18	=18	=18	=18	=18	=18	=18	=18	=18	=18	=18	=18
!	!	!	!	!	!	!	!	!	!	!LO:TX:a:t=P:problem=mixed beam	!	!	!	!
8D\L	.	8r	.	8f/	.	8f/	.	1r	1r	8c\L	.	.	.	.
8D\	.	(>4d\	.	4d/	.	4d/	.	.	.	8C/	.	.	.	.
8D\	.	.	.	.	.	.	.	.	.	8E/	.	.	.	.
8D\J	.	4f\	.	8Bn/	.	8Bn/	.	.	.	8C/J	.	.	.	.
8D\L	.	.	.	2B/	.	2B/	.	.	.	8F\L	.	.	.	.
8D\	.	4e\)	.	.	.	.	.	.	.	8C\	.	.	.	.
8D\	.	.	.	.	.	.	.	.	.	8E\	.	.	.	.
8D\J	.	8d\	.	.	.	.	.	.	.	8C\J	.	.	.	.
=19	=19	=19	=19	=19	=19	=19	=19	=19	=19	=19	=19	=19	=19	=19
!	!	!	!LO:DY:b:rj	!	!	!	!	!	!	!	!	!	!	!
8C/L	.	8c\L	f	8c/	.	8c/	.	8c/	8c/	8F\L	.	8c/	.	8c/
8C/	.	8c\	.	8r	.	8r	.	8r	4r	8C\	.	8r	.	8r
8E/	.	8e\	.	16gg\LL	.	16gg\LL	.	4r	.	8E\	.	16ee\LL	.	(>16gg\LL
.	.	.	.	16aa\	.	16aa\	.	.	.	.	.	16gg\	.	16bb-\
8C/J	.	8c\J	.	16aa\	.	16aa\	.	.	8r	8C\J	.	16ff\	.	16aa\
.	.	.	.	16gg\JJ	.	16gg\JJ	.	.	.	.	.	16ee\JJ	.	16gg\JJ)
!	!	!	!	!	!	!LO:LB:g=original	!	!	!	!	!	!LO:N:vis=4	!	!
8F/L	.	8f\L	.	8ff\	.	8ff\	.	8A/	8f\	8F\L	.	8ff\	.	8ff\
8C/	.	8c\	.	8r	.	8r	.	4r	8r	8C\	.	8r	.	8r
8E/	.	8e\	.	(>16gg\LL	.	16gg\LL	.	.	4r	8AA\	.	16ee\LL	.	(>16gg\LL
.	.	.	.	16bb-\	.	16bb-\	.	.	.	.	.	16gg\	.	16bb-\
8C/J	.	8c\J	.	16aa\	.	16aa\	.	8c/	.	8FF\J	.	16ff\	.	16aa\
.	.	.	.	16gg\JJ)	.	16gg\JJ	.	.	.	.	.	16ee\JJ	.	16gg\JJ)
!LO:LB:g=original	!	!	!	!	!	!	!	!	!	!	!	!LO:LB:g=original	!	!
=20	=20	=20	=20	=20	=20	=20	=20	=20	=20	=20	=20	=20	=20	=20
8F\L	.	8f\L	.	8ff\	.	8ff\	.	8A/	8f\	4C/	.	8ff\	.	8ff\
8C\	.	8c\	.	8r	.	8r	.	4r	4r	.	.	8r	.	8r
!	!	!	!	!	!	!	!	!	!	!	!	!	!	!LO:LB:g=original
8E\	.	8e\	.	(>16gg\LL	.	16gg\LL	.	.	.	4r	.	16ee\LL	.	16gg\LL
.	.	.	.	16bb-\	.	16bb-\	.	.	.	.	.	16gg\	.	16bb-\
8C\J	.	8c\J	.	16aa\	.	16aa\	.	8r	8r	.	.	16ff\	.	16aa\
.	.	.	.	16gg\JJ)	.	16gg\JJ	.	.	.	.	.	16ee\JJ	.	16gg\JJ
4F\	.	4f\	.	8ff\L|	.	8ff\L	.	8A/L	8r	2r	.	8ff\L	.	8ff'\L
.	.	.	.	8cc\|	.	8cc\J	.	8c/	8cc\L|	.	.	8cc\	.	8cc'\
4r	.	4r	.	8a\|	.	8a/L	.	8A/	8a\|	.	.	8a\	.	8a'\
.	.	.	.	8f\J|	.	8f/J	.	8F/J	8f\J|	.	.	8f\J	.	8f'\J
=21	=21	=21	=21	=21	=21	=21	=21	=21	=21	=21	=21	=21	=21	=21
!	!	!LO:TX:a:t=2	!	!	!	!	!	!LO:TX:a:i:t=Solo	!LO:TX:a:i:t=Solo	!	!	!	!	!
8C/L	.	0r	.	4c/	.	4c/	.	4C/	4c/	1r	.	4c/	.	4c/
8C/	.	.	.	.	.	.	.	.	.	.	.	.	.	.
8E/	.	.	.	4r	.	4r	.	8c\L	8g\L	.	.	4r	.	4r
8C/J	.	.	.	.	.	.	.	8g\J	8b-\J	.	.	.	.	.
!	!	!	!	!	!	!	!	!LO:LB:g=original	!	!	!	!	!	!
8F/L	.	.	.	2r	.	2r	.	4f\	4a\	.	.	2r	.	2r
8C/	.	.	.	.	.	.	.	.	.	.	.	.	.	.
8E/	.	.	.	.	.	.	.	8c\L	8g\L	.	.	.	.	.
8C/J	.	.	.	.	.	.	.	8g\J	8b-\J	.	.	.	.	.
=22	=22	=22	=22	=22	=22	=22	=22	=22	=22	=22	=22	=22	=22	=22
!	!	!	!	!LO:TX:a:t=1	!	!LO:TX:a:t=I	!	!	!	!	!	!LO:TX:a:t=1	!	!LO:TX:a:t=1
.	.	.	.	.	.	.	.	8qqg/	16qqb-/	.	.	.	.	.
8D/L	.	.	.	1r	.	1r	.	4f\	4a\	1ryy	.	1r	.	1r
8D/	.	.	.	.	.	.	.	.	.	.	.	.	.	.
8E/	.	.	.	.	.	.	.	8c\L	8g\L	.	.	.	.	.
8D/J	.	.	.	.	.	.	.	8g\J	8b-\J	.	.	.	.	.
.	.	.	.	.	.	.	.	8qqg/	8qqb-/	.	.	.	.	.
8F\L	.	.	.	.	.	.	.	4f\	4a\	.	.	.	.	.
8G\	.	.	.	.	.	.	.	.	.	.	.	.	.	.
8F\	.	.	.	.	.	.	.	4r	4r	.	.	.	.	.
8E\J	.	.	.	.	.	.	.	.	.	.	.	.	.	.
=23	=23	=23	=23	=23	=23	=23	=23	=23	=23	=23	=23	=23	=23	=23
*	*	*Xtremolo	*	*	*	*	*	*	*	*	*	*	*	*
8D\L	.	8d\L	.	4d/	.	4d/	.	2r	2r	8D\L	.	4d/	.	4d/
8D\	.	8d\J	.	.	.	.	.	.	.	8D\	.	.	.	.
8F#X\	.	8f#X\L	.	16aa\LL	.	(>16aa\LL	.	.	.	8F#X\	.	(>16ff#X\LL	.	16aa\LL
.	.	.	.	16ccc\	.	16ccc\	.	.	.	.	.	16aa\	.	16ccc\
8D\J	.	8d\J	.	16bbn\	.	16bbn\	.	.	.	8D\J	.	16gg\	.	16bbn\
.	.	.	.	16aa\JJ	.	16aa\JJ)	.	.	.	.	.	16ff#\JJ)	.	16aa\JJ
8G\L	.	8g\L	.	8gg\	.	8gg\	.	8g\	8g\	8G\L	.	8gg\	.	8gg\
8D\	.	8d\	.	8r	.	8r	.	4r	8r	8D\	.	8r	.	8r
!	!	!	!	!LO:LB:g=original	!	!	!	!	!	!	!	!	!	!
8F#X\	.	8f#\	.	(>16aa\LL	.	(>16aa\LL	.	.	4r	8F#X\	.	(>16ff#\LL	.	16aa\LL
.	.	.	.	16ccc\	.	16ccc\	.	.	.	.	.	16aa\	.	16ccc\
8D\J	.	8d\J	.	16bbn\	.	16bb\	.	8r	.	8D\J	.	16gg\	.	16bbn\
.	.	.	.	16aa\JJ)	.	16aa\JJ)	.	.	.	.	.	16ff#\JJ)	.	16aa\JJ
!	!	!LO:LB:g=original	!	!	!	!	!	!	!LO:LB:g=original	!	!	!	!	!
=24	=24	=24	=24	=24	=24	=24	=24	=24	=24	=24	=24	=24	=24	=24
8G\L	.	8g\L	.	8gg\	.	8gg\	.	8g\	8g\	8G\L	.	8gg\	.	8gg\
8D\	.	8d\	.	8r	.	8r	.	8r	8r	8D\	.	8r	.	8r
8F#X\	.	8f\	.	16aa\LL	.	16aa\LL	.	4r	4r	8F#X\	.	(>16ff#X\LL	.	16aa\LL
.	.	.	.	16ccc\	.	16ccc\	.	.	.	.	.	16aa\	.	16ccc\
8D\J	.	8d\J	.	16bb-\	.	16bb-\	.	.	.	8D\J	.	16gg\	.	16bbn\
.	.	.	.	16aa\JJ	.	16aa\JJ	.	.	.	.	.	16ff#\JJ)	.	16aa\JJ
4G\	.	8g\L	.	8gg\L|	.	8gg\L|	.	8g\	8g\	8G\L	.	8gg\L	.	8gg\L
.	.	8d\J	.	8dd\|	.	8dd\|	.	8r	8r	8D\J	.	8dd\	.	8dd\
4r	.	8Bn/L	.	8bn\|	.	8bn\|	.	4r	4r	8BBn/L	.	8bn\	.	8bn\
.	.	8G/J	.	8g\J|	.	8g\J|	.	.	.	8GG/J	.	8g\J	.	8g\J
!	!	!	!	!	!	!	!	!	!	!	!	!LO:LB:g=original	!	!
=25	=25	=25	=25	=25	=25	=25	=25	=25	=25	=25	=25	=25	=25	=25
!	!	!	!	!	!	!	!	!LO:TX:a:t=2	!LO:TX:a:t=2	!	!	!LO:TX:a:i:t=Solo	!LO:DY:b:t=p&colon;:rj	!LO:TX:a:i:t=Solo
8D\L	.	4d\	.	4d/	.	4d/	.	0r	0r	4E\	.	4d/	p	4d/
8D\	.	.	.	.	.	.	.	.	.	.	.	.	.	.
8F#X\	.	4r	.	4r	.	4r	.	.	.	4r	.	(<8f#X/L	.	(>8a\L
8D\J	.	.	.	.	.	.	.	.	.	.	.	8a/J)	.	8cc\J)
!	!	!	!	!	!	!	!	!	!	!	!	!LO:N:vis=8	!	!
8G\L	.	2r	.	2r	.	2r	.	.	.	2r	.	4g/	.	4bn\
8D\	.	.	.	.	.	.	.	.	.	.	.	.	.	.
8F#\	.	.	.	.	.	.	.	.	.	.	.	8f#X/L	.	8a\L
8D\J	.	.	.	.	.	.	.	.	.	.	.	8a/J	.	8cc\J
!	!	!	!	!	!	!LO:LB:g=original	!	!	!	!LO:LB:g=original	!	!	!	!LO:LB:g=original
=26	=26	=26	=26	=26	=26	=26	=26	=26	=26	=26	=26	=26	=26	=26
!	!	!LO:TX:a:t=1	!	!LO:TX:a:t=1	!	!LO:TX:a:t=1	!	!	!	!LO:TX:a:t=1	!	!	!	!
!	!	!	!	!	!	!	!	!	!	!	!	!LO:N:vis=16	!	!
8G\L	.	1r	.	1r	.	1r	.	.	.	1r	.	4g/	.	4bn\
8D\	.	.	.	.	.	.	.	.	.	.	.	.	.	.
8F#X\	.	.	.	.	.	.	.	.	.	.	.	(<8f#X/L	.	8a\L
8D\J	.	.	.	.	.	.	.	.	.	.	.	8a/J)	.	8cc\J
.	.	.	.	.	.	.	.	.	.	.	.	16qqa/	.	16qqb/
!LO:TX:a:t=P:problem=mixed beam	!	!	!	!	!	!	!	!	!	!	!	!	!	!
8G\L	.	.	.	.	.	.	.	.	.	.	.	4g/	.	8r
8D/	.	.	.	.	.	.	.	.	.	.	.	.	.	4b\
8BBn/	.	.	.	.	.	.	.	.	.	.	.	4r	.	.
8GG/J	.	.	.	.	.	.	.	.	.	.	.	.	.	8r
!LO:LB:g=original	!	!	!	!	!	!	!	!	!	!	!	!	!	!
=27	=27	=27	=27	=27	=27	=27	=27	=27	=27	=27	=27	=27	=27	=27
*Xtremolo	*	*tremolo	*	*	*	*	*	*	*	*	*	*2\right	*	*2\right
8GG/L	.	8Bn/L	.	(>8dd\	.	8ff\	.	4g\	4g\	8GG/L	.	4dd\	.	4ff\
8GG/	.	8Bn/	.	4ff\	.	4ddd\	.	.	.	8GG/	.	.	.	.
8GG/	.	8Bn/	.	.	.	.	.	4g\	4g\	8GG/	.	2dd\	.	2ff\
8GG/J	.	8Bn/J	.	4dd\	.	4ff\	.	.	.	8GG/J	.	.	.	.
*tremolo	*	*	*	*	*	*	*	*	*	*	*	*	*	*
8GG/L	.	8B/L	.	.	.	.	.	4g\	4g\	8GG/L	.	.	.	.
8GG/	.	8B/	.	4ff\	.	4ddd\	.	.	.	8GG/	.	.	.	.
8GG/	.	8B/	.	.	.	.	.	4g\	4g\	8GG/	.	4dd\	.	[>4ff\
8GG/J	.	8B/J	.	8dd\)	.	8ff\	.	.	.	8GG/J	.	.	.	.
=28	=28	=28	=28	=28	=28	=28	=28	=28	=28	=28	=28	=28	=28	=28
8GG/L	.	8B-/	.	(>8dd\	.	(>8ff\	.	4g\	4g\	8GG/L	.	4dd\	.	4ff\]
8GG/	.	(>4d\	.	4ff\	.	4ddd\	.	.	.	8GG/	.	.	.	.
8GG/	.	.	.	.	.	.	.	4g\	4g\	8GG/	.	8r	.	8r
8GG/J	.	4f\	.	4dd\	.	4ff\)	.	.	.	8GG/J	.	4dd\	.	(>4ff\
8GG/L	.	.	.	.	.	.	.	4g\	4g\	8GG/L	.	.	.	.
8GG/	.	4g\	.	4cc\	.	4ee\	.	.	.	8GG/	.	4cc\	.	4ee\
8GG/	.	.	.	.	.	.	.	4g\	4g\	8GG/	.	.	.	.
8GG/J	.	8f\)	.	8bn\)	.	8dd\	.	.	.	8GG/J	.	8bn\	.	8dd\)
!	!	!	!	!	!	!	!	!LO:LB:g=original	!	!	!	!	!	!
=29	=29	=29	=29	=29	=29	=29	=29	=29	=29	=29	=29	=29	=29	=29
8GG/L	.	8e\L	.	8cc\	.	8ee\	.	4g\	4g\	8GG/L	.	4cc\	.	4ee\
8GG/	.	8e\	.	(>4ee\	.	(>4ccc\	.	.	.	8GG/	.	.	.	.
8GG/	.	8e\	.	.	.	.	.	4g\	4g\	8GG/	.	2cc\	.	2ee\
8GG/J	.	8e\J	.	4cc\	.	4ee\	.	.	.	8GG/J	.	.	.	.
8GG/L	.	8e\L	.	.	.	.	.	4g\	4g\	8GG/L	.	.	.	.
8GG/	.	8e\	.	4ee\)	.	4ccc\)	.	.	.	8GG/	.	.	.	.
8GG/	.	8e\	.	.	.	.	.	4g\	4g\	8GG/	.	4cc\	.	4ee\
8GG/J	.	8e\J	.	8cc\	.	8ee\	.	.	.	8GG/J	.	.	.	.
!	!	!	!	!LO:LB:g=original	!	!	!	!	!	!	!	!	!	!
=30	=30	=30	=30	=30	=30	=30	=30	=30	=30	=30	=30	=30	=30	=30
!LO:TX:a:t=P:problem=takty 30-32 zapisane jako repetycja t. 27-29	!	!	!	!	!	!	!	!	!	!	!	!	!	!
*Xtremolo	*	*	*	*	*	*	*	*	*	*	*	*	*	*
8GG/Lyy	.	8e\	.	8cc\	.	8ee\	.	4g\	4g\	8GG/L	.	4cc\	.	4ee\
8GG/yy	.	4g\	.	(>4ee\	.	4ccc\	.	.	.	8GG/	.	.	.	.
8GG/yy	.	.	.	.	.	.	.	4g\	4g\	8GG/	.	8r	.	8r
8GG/Jyy	.	4cc\	.	4ee\	.	4gg\	.	.	.	8GG/J	.	4ee\	.	(>4gg\
*tremolo	*	*	*	*	*	*	*	*	*	*	*	*	*	*
8GG/Lyy	.	.	.	.	.	.	.	4g\	4g\	8GG/L	.	.	.	.
8GG/	.	4g\	.	4dd\	.	4ff\	.	.	.	8GG/	.	4dd\	.	4ff\
8GG/	.	.	.	.	.	.	.	4g\	4g\	8GG/	.	.	.	.
8GG/J	.	8e\	.	8cc\)	.	8ee\	.	.	.	8GG/J	.	8cc\	.	8ee\)
=31	=31	=31	=31	=31	=31	=31	=31	=31	=31	=31	=31	=31	=31	=31
8GG/Lyy	.	8Bn/L	.	(>8dd\	.	(>8ff\	.	4g\	4g\	8GG/L	.	4dd\	.	4ff\
8GG/	.	8Bn/	.	4ff\	.	4ddd\)	.	.	.	8GG/	.	.	.	.
8GG/	.	8Bn/	.	.	.	.	.	4g\	4g\	8GG/	.	2dd\	.	2ff\
8GG/J	.	8Bn/J	.	8dd\)	.	8ff\	.	.	.	8GG/J	.	.	.	.
8GG/Lyy	.	8B/L	.	(>8dd\	.	(>8ff\	.	4g\	4g\	8GG/L	.	.	.	.
8GG/	.	8B/	.	4ff\	.	4ddd\)	.	.	.	8GG/	.	.	.	.
8GG/	.	8B/	.	.	.	.	.	4g\	4g\	8GG/	.	4dd\	.	4ff\
8GG/J	.	8B/J	.	8dd\)	.	8ff\	.	.	.	8GG/J	.	.	.	.
!	!	!LO:LB:g=original	!	!	!	!	!	!	!	!	!	!LO:LB:g=original	!	!
=32	=32	=32	=32	=32	=32	=32	=32	=32	=32	=32	=32	=32	=32	=32
!	!	!LO:N:vis=4	!	!	!	!	!	!	!	!	!	!	!	!
8GG/Lyy	.	8B-/	.	8dd\	.	(>8ff\	.	4g\	4g\	8GG/L	.	4dd\	.	4ff\
8GG/	.	4d\	.	4ff\	.	4ddd\)	.	.	.	8GG/	.	.	.	.
8GG/	.	.	.	.	.	.	.	4g\	4g\	8GG/	.	8r	.	8r
8GG/J	.	4f\	.	4dd\	.	4ff\	.	.	.	8GG/J	.	4dd\	.	4ff\
8GG/Lyy	.	.	.	.	.	.	.	4g\	4g\	8GG/L	.	.	.	.
8GG/	.	4g\	.	4cc\	.	4ee\	.	.	.	8GG/	.	4cc\	.	4ee\
8GG/	.	.	.	.	.	.	.	4g\	4g\	8GG/	.	.	.	.
8GG/J	.	8f\	.	8bn\	.	8dd\	.	.	.	8GG/J	.	8bn\	.	8dd\
!	!	!	!	!	!	!	!	!	!	!	!	!	!	!LO:LB:g=original
=33	=33	=33	=33	=33	=33	=33	=33	=33	=33	=33	=33	=33	=33	=33
*	*	*	*	*^	*	*	*	*	*	*	*	*	*	*
!LO:TX:a:t=P:problem=mixed beam	!	!	!	!	!	!	!	!	!	!	!LO:TX:a:t=P:problem=mixed beam	!	!	!	!
8C/L	.	8c\L	.	8ryy	8cc\	.	8ee\	.	4c/	4cc\	8C/L	.	8cc\	.	8ee\
8c\	.	8cc\	.	4ccc/	4ee\	.	4ccc 4ee\	.	.	.	8c\	.	4ee\	.	4ccc\
8Bn\	.	8bn\	.	.	.	.	.	.	2c/	2cc\	8Bn\	.	.	.	.
8A\J	.	8a\J	.	4ccc/	4ee\	.	4ccc 4ee\	.	.	.	8A\J	.	4ee\	.	4ccc\
8G\L	.	8g\L	.	.	.	.	.	.	.	.	8G\L	.	.	.	.
8E\	.	8e\	.	4ccc/	4ee\	.	4ccc 4ee\	.	.	.	8E\	.	4ee\	.	4ccc\
8F\	.	8f\	.	.	.	.	.	.	4c/	4cc\	8F\	.	.	.	.
8G\J	.	8g\J	.	8ccc/	8ee\	.	8ccc 8ee\	.	.	.	8G\J	.	[>8ee\	.	8ccc\
!	!	!	!	!	!	!	!LO:LB:g=original	!	!	!LO:LB:g=original	!	!	!	!	!
=34	=34	=34	=34	=34	=34	=34	=34	=34	=34	=34	=34	=34	=34	=34	=34
*	*	*	*	*	*	*	*^	*	*	*	*	*	*	*	*
8A\L	.	8a\L	.	8ccc/	8ee\	.	8ccc/	8ee\	.	4c/	4cc\	8A\L	.	8ee\]	.	8ccc\
8c\	.	8cc\	.	4ccc/	4ee\	.	4ccc/	4ee\	.	.	.	8c\	.	4ee\	.	4ccc\
8Bn\	.	8bn\	.	.	.	.	.	.	.	2c/	2cc\	8Bn\	.	.	.	.
8A\J	.	8a\J	.	4ccc/	4ee\	.	4ccc/	4ee\	.	.	.	8A\J	.	4ee\	.	4ccc\
8G\L	.	8g\L	.	.	.	.	.	.	.	.	.	8G\L	.	.	.	.
8E\	.	8e\	.	4ccc/	4ee\	.	4ccc/	4ee\	.	.	.	8E\	.	4ee\	.	4ccc\
8F\	.	8f\	.	.	.	.	.	.	.	4c/	4cc\	8F\	.	.	.	.
8G\J	.	8g\J	.	8ccc/	8ee\	.	8ccc/	8ee\	.	.	.	8G\J	.	8ee\	.	8ccc\
=35	=35	=35	=35	=35	=35	=35	=35	=35	=35	=35	=35	=35	=35	=35	=35	=35
4A\	.	4a\	.	8ccc/	8ee\	.	8ccc/	8ee\	.	4c/	4cc\	4A\	.	4ee\	.	4ccc\
!	!	!	!	!	!	!LO:DY:a:t=pia	!	!	!	!	!	!	!	!	!	!
.	.	.	.	8ccc\L	8ryy	p	(>8ccc'\L	2..ryy	.	.	.	.	.	.	.	.
4r	.	4r	.	8bbn\	4ryy	.	8bbn'\	.	.	4r	4r	4r	.	4r	.	4r
.	.	.	.	8aa\J	.	.	8aa'\J	.	.	.	.	.	.	.	.	.
!	!	!	!	!LO:LB:g=original	!	!	!	!	!	!	!	!	!	!	!	!
2r	.	2r	.	(>8gg'\L	2ryy	.	8gg'\L	.	.	2r	2r	2r	.	2r	.	2r
.	.	.	.	8ff'\	.	.	8ff'\	.	.	.	.	.	.	.	.	.
.	.	.	.	8ee'\	.	.	8ee'\	.	.	.	.	.	.	.	.	.
.	.	.	.	8dd'\J)	.	.	8dd'\J)	.	.	.	.	.	.	.	.	.
*	*	*	*	*v	*v	*	*	*	*	*	*	*	*	*	*	*
*	*	*	*	*	*	*v	*v	*	*	*	*	*	*	*	*
!	!	!	!	!	!	!	!	!	!	!LO:LB:g=original	!	!	!	!
=36	=36	=36	=36	=36	=36	=36	=36	=36	=36	=36	=36	=36	=36	=36
8G\L	.	8e\L	.	4.cc\	.	4.cc\	.	4c/	4g\	8G\L	.	2cc\	.	2cc\
8G\	.	8e\	.	.	.	.	.	.	.	8G\	.	.	.	.
8G\	.	8e\	.	.	.	.	.	4c/	4g\	8G\	.	.	.	.
8G\J	.	8e\J	.	32g\LLL	.	(>32g\LLL	.	.	.	8G\J	.	.	.	.
.	.	.	.	32a\	.	32a\	.	.	.	.	.	.	.	.
.	.	.	.	32b-\	.	32b-\	.	.	.	.	.	.	.	.
.	.	.	.	32cc\JJJ	.	32cc\JJJ)	.	.	.	.	.	.	.	.
*	*	*	*	*2\right	*	*	*	*	*	*	*	*	*	*
8G\L	.	8Bn/L	.	2ddT\	.	2ddT\	.	4g\	4g\	8G\L	.	2bnm\	.	2dd\
8G\	.	8Bn/	.	.	.	.	.	.	.	8G\	.	.	.	.
8G\	.	8Bn/	.	.	.	.	.	4g\	4g\	8G\	.	.	.	.
8G\J	.	8Bn/J	.	.	.	.	.	.	.	8G\J	.	.	.	.
!	!	!	!	!	!	!	!	!LO:LB:g=original	!	!	!	!	!	!
=37	=37	=37	=37	=37	=37	=37	=37	=37	=37	=37	=37	=37	=37	=37
*	*	*	*	*^	*	*^	*	*	*	*	*	*	*	*
!LO:TX:a:t=P:problem=mixed beam	!	!LO:TX:a:t=P:problem=mixed beam	!	!	!	!	!	!	!LO:DY:a	!	!	!LO:TX:a:t=P:problem=mixed beam	!	!	!	!
!	!	!	!	!	!	!	!	!	!LO:DY:t=pia:rj	!	!	!	!	!	!	!
8C/L	.	8c/L	.	8ryy	8cc\	.	8ryy	8ee\	p	4c/	4cc\	8C/L	.	8cc\	.	8ee\
8c\	.	8cc\	.	4ccc/	4ee\	.	4ccc/	4ee\	.	.	.	8c\	.	4ee\	.	4ccc\
8Bn\	.	8bn\	.	.	.	.	.	.	.	2c/	2cc\	8Bn\	.	.	.	.
8A\J	.	8a\J	.	4ccc/	4ee\	.	4ccc/	4ee\	.	.	.	8A\J	.	4ee\	.	4ccc\
8G\L	.	8g\L	.	.	.	.	.	.	.	.	.	8G\L	.	.	.	.
8E\	.	8e\	.	4ccc/	4ee\	.	4ccc/	4ee\	.	.	.	8E\	.	4ee\	.	4ccc\
8F\	.	8f\	.	.	.	.	.	.	.	4c/	4cc\	8F\	.	.	.	.
8G\J	.	8g\J	.	8ccc/	8ee\	.	8ccc/	8ee\	.	.	.	8G\J	.	8ee\	.	8ccc\
!LO:LB:g=original	!	!	!	!	!	!	!	!	!	!	!	!	!	!	!	!
=38	=38	=38	=38	=38	=38	=38	=38	=38	=38	=38	=38	=38	=38	=38	=38	=38
8A\L	.	8a\L	.	8ccc/	8ee\	.	8ccc/	8ee\	.	4c/	4cc\	8A\L	.	8ee\	.	8ccc\
8c\	.	8cc\	.	4ccc/	4ee\	.	4ccc/	4ee\	.	.	.	8c\	.	4ee\	.	4ccc\
8B-\	.	8bn\	.	.	.	.	.	.	.	2c/	2cc\	8Bn\	.	.	.	.
8A\J	.	8a\J	.	4ccc/	4ee\	.	4ccc/	4ee\	.	.	.	8A\J	.	4ee\	.	4ccc\
!	!	!LO:LB:g=original	!	!	!	!	!	!	!	!	!	!	!	!	!	!
8G\L	.	8g\L	.	.	.	.	.	.	.	.	.	8G\L	.	.	.	.
8E\	.	8e\	.	4ccc/	4ee\	.	4ccc/	4ee\	.	.	.	8E\	.	4ee\	.	4ccc\
8F\	.	8f\	.	.	.	.	.	.	.	4c/	4cc\	8F\	.	.	.	.
8G\J	.	8g\J	.	8ccc/	8ee\	.	8ccc/	8ee\	.	.	.	8G\J	.	8ee\	.	8ccc\
!	!	!	!	!	!	!	!	!	!	!	!	!	!	!LO:LB:g=original	!	!
=39	=39	=39	=39	=39	=39	=39	=39	=39	=39	=39	=39	=39	=39	=39	=39	=39
4A\	.	4a\	.	8ccc/	8ee\	.	8ccc/	8ee\	.	4c/	4cc\	4A\	.	8ee\	.	4ccc\
.	.	.	.	(>8ccc'\L	8ryy	.	(>8ccc'\L	8ryy	.	.	.	.	.	8r	.	.
4r	.	4r	.	8bbn'\	4ryy	.	8bbn'\	4ryy	.	4r	4r	4r	.	4r	.	4r
.	.	.	.	8aa'\J	.	.	8aa'\J	.	.	.	.	.	.	.	.	.
2r	.	2r	.	8gg'\L	2ryy	.	8gg'\L	2ryy	.	2r	2r	2r	.	2r	.	2r
.	.	.	.	8ff'\	.	.	8ff'\	.	.	.	.	.	.	.	.	.
.	.	.	.	8ee'\	.	.	8ee'\	.	.	.	.	.	.	.	.	.
.	.	.	.	8dd'\J)	.	.	8dd'\J)	.	.	.	.	.	.	.	.	.
*	*	*	*	*v	*v	*	*	*	*	*	*	*	*	*	*	*
*	*	*	*	*	*	*v	*v	*	*	*	*	*	*	*	*
=40	=40	=40	=40	=40	=40	=40	=40	=40	=40	=40	=40	=40	=40	=40
!	!	!	!	!	!	!	!LO:DY:a:t=for	!	!	!	!	!	!	!
8G\L	.	8e\L	.	4.cc\	.	4.cc\	f	4c\	4g\	8G\L	.	2b-\	.	2cc\
8G\	.	8e\	.	.	.	.	.	.	.	8G\	.	.	.	.
8G\	.	8e\	.	.	.	.	.	4c\	4g\	8G\	.	.	.	.
!	!	!	!	!	!	!LO:LB:g=original	!	!	!	!	!	!	!	!
8G\J	.	8e\J	.	32g\LLL	.	32g/LLL	.	.	.	8G\J	.	.	.	.
.	.	.	.	32a\	.	32a/	.	.	.	.	.	.	.	.
.	.	.	.	32b-\	.	32b-/	.	.	.	.	.	.	.	.
.	.	.	.	32cc\JJJ	.	32cc/JJJ	.	.	.	.	.	.	.	.
*	*	*	*	*	*	*2\right	*	*	*	*	*	*	*	*
8G\L	.	8Bn/L	.	2ddT\	.	2ddT\	.	4g\	4g\	8G\L	.	2bnm\	.	2dd\
8G\	.	8Bn/	.	.	.	.	.	.	.	8G\	.	.	.	.
8G\	.	8Bn/	.	.	.	.	.	4g\	4g\	8G\	.	.	.	.
8G\J	.	8Bn/J	.	.	.	.	.	.	.	8G\J	.	.	.	.
!	!	!	!	!LO:LB:g=original	!	!	!	!	!	!	!	!	!	!LO:LB:g=original
=41	=41	=41	=41	=41	=41	=41	=41	=41	=41	=41	=41	=41	=41	=41
4C/	.	4c\	.	4cc\	.	4cc\	.	4c/	4g\	4C/	.	4cc\	.	4cc\
4r	.	4r	.	4r	.	4r	.	4r	4r	4r	.	(>8cc\L	.	(>8ee\L
.	.	.	.	.	.	.	.	.	.	.	.	8ee\J)	.	8gg\J)
.	.	.	.	.	.	.	.	.	.	.	.	.	.	16qqgg/
4r	.	4r	.	4r	.	4r	.	4r	4r	4r	.	4dd\	.	4ff\
4GG/	.	4G/	.	4bn 4d 4G/	.	4bn 4d 4G/	.	4g\	4g\	4G\	.	4bn\	.	4bn\
=42	=42	=42	=42	=42	=42	=42	=42	=42	=42	=42	=42	=42	=42	=42
*	*	*	*	*	*	*^	*	*	*	*	*	*	*	*
4C/	.	4c\	.	4cc 4e 4G/	.	4cc 4e 4G/	4ryy	.	4c/	4g\	4C/	.	4cc\	.	4cc\
4r	.	4r	.	4r	.	4r	4ryy	.	4r	4r	4r	.	8cc\L	.	(>8ee\L
.	.	.	.	.	.	.	.	.	.	.	.	.	8ee\J	.	8gg\J)
.	.	.	.	.	.	.	.	.	.	.	.	.	16qqee/	.	16qqgg/
4r	.	4r	.	4r	.	4r	4ryy	.	4r	4r	4r	.	4dd\	.	4ff\
4G\	.	4G/	.	4bbn 4dd 4g/	.	4bbn/	4dd\	.	4g\	4g\	4G\	.	4bn\	.	4bn\
*	*	*	*	*	*	*v	*v	*	*	*	*	*	*	*	*
=43	=43	=43	=43	=43	=43	=43	=43	=43	=43	=43	=43	=43	=43	=43
4C/	.	4c/	.	4ccc 4ee 4g/	.	4ccc 4ee\	.	4c/	4g\	4C/	.	4cc\	.	4cc\
4r	.	4r	.	4r	.	4r	.	4r	4r	4r	.	4r	.	4r
2r	.	2r	.	2r	.	2r	.	2r	2r	2r	.	2r	.	2r
!	!	!	!	!	!	!	!	!	!LO:LB:g=original	!	!	!	!	!
=44:|!|:	=44:|!|:	=44:|!|:	=44:|!|:	=44:|!|:	=44:|!|:	=44:|!|:	=44:|!|:	=44:|!|:	=44:|!|:	=44:|!|:	=44:|!|:	=44:|!|:	=44:|!|:	=44:|!|:
*>B	*	*>B	*	*>B	*	*>B	*	*>B	*>B	*>B	*	*>B	*	*>B
*Xtremolo	*	*	*	*	*	*	*	*	*	*	*	*	*	*
*	*	*	*	*^	*	*^	*	*	*	*	*	*	*	*
!	!	!	!LO:DY:b:t=f&colon;:rj	!	!	!	!	!	!LO:DY:a:t=for	!	!	!	!	!LO:TX:a:t=1	!	!LO:TX:a:t=1
8C/L	.	8c\L	f	8cc/	8e\	.	8cc/	8e\	f	4c/	4cc\	8C/L	.	1r	.	1r
!	!	!	!	!	!	!	!	!	!	!	!	!	!LO:DY:b:t=f.	!	!	!
8C/	.	8c\	.	4cc/	4e\	.	4cc/	4e\	.	.	.	8C/	f	.	.	.
8C/	.	8c\	.	.	.	.	.	.	.	2c/	2cc\	8C/	.	.	.	.
!	!LO:DY:t=f.	!	!	!	!	!	!	!	!	!	!	!	!	!	!	!
8C/J	f	8c\J	.	4cc/	4e\	.	4cc/	4e\	.	.	.	8C/J	.	.	.	.
*tremolo	*	*	*	*	*	*	*	*	*	*	*	*	*	*	*	*
8C/L	.	8c\L	.	.	.	.	.	.	.	.	.	8C/L	.	.	.	.
8C/	.	8c\	.	4cc/	4e\	.	4cc/	4e\	.	.	.	8C/	.	.	.	.
8C/	.	8c\	.	.	.	.	.	.	.	4c/	4cc\	8C/	.	.	.	.
8C/J	.	8c\J	.	8cc/	8e\	.	8cc/	8e\	.	.	.	8C/J	.	.	.	.
!	!	!	!	!	!	!	!	!	!	!LO:LB:g=original	!	!LO:LB:g=original	!	!	!	!
=45	=45	=45	=45	=45	=45	=45	=45	=45	=45	=45	=45	=45	=45	=45	=45	=45
8C/L	.	8c\L	.	8a/	8e\	.	8a/	8e\	.	4c/	4cc\	8C/L	.	4r	.	4r
!	!	!	!	!	!	!LO:DY:a	!	!	!LO:DY:a:t=pia	!	!	!	!	!	!	!
!	!	!	!	!	!	!	!	!	!	!	!	!	!LO:DY:b:t=p.	!	!	!
8C/	.	8c\	.	8r	8ryy	p	8r	8ryy	p	.	.	8C/	p	.	.	.
8C/	.	8c\	.	8ff\	4ryy	.	8aa\	4ryy	.	4r	4r	8C/	.	4ff\	.	(>4aa\
!	!LO:DY:t=p.	!	!LO:DY:b:t=p&colon;	!	!	!	!	!	!	!	!	!	!	!	!	!
8C/J	p	8c\J	p	8r	.	.	8r	.	.	.	.	8C/J	.	.	.	.
8C/L	.	8c\L	.	8ee\	2ryy	.	8gg\	2ryy	.	2r	2r	8C/L	.	4een\	.	4gg\
8C/	.	8c\	.	8r	.	.	8r	.	.	.	.	8C/	.	.	.	.
8C/	.	8c\	.	8dd\	.	.	8ff\	.	.	.	.	8C/	.	4dd\	.	4ff\)
8C/J	.	8c\J	.	8r	.	.	8r	.	.	.	.	8C/J	.	.	.	.
=46	=46	=46	=46	=46	=46	=46	=46	=46	=46	=46	=46	=46	=46	=46	=46	=46
!	!	!	!	!	!	!	!	!	!LO:DY:a:t=for.	!	!	!	!	!	!	!
8C/L	.	8c\L	.	8cc/	8e\	.	8ee\	8ryy	f	4c/	4cc\	8C/L	.	4cc\	.	4ee\
!	!	!	!	!	!	!	!	!	!	!	!	!	!LO:DY:b:t=f.	!	!	!
8C/	.	8c\	.	4cc/	4e\	.	4cc/	4e\	.	.	.	8C/	f	.	.	.
8C/	.	8c\	.	.	.	.	.	.	.	2c/	2cc\	8C/	.	4r	.	4r
8C/J	f	8c\J	f	4cc/	4e\	.	4cc/	4e\	.	.	.	8C/J	.	.	.	.
8C/L	.	8c\L	.	.	.	.	.	.	.	.	.	8C/L	.	2r	.	2r
8C/	.	8c\	.	4cc/	4e\	.	4cc/	4e\	.	.	.	8C/	.	.	.	.
8C/	.	8c\	.	.	.	.	.	.	.	4c/	4cc\	8C/	.	.	.	.
8C/J	.	8c\J	.	8cc/	8e\	.	8cc/	8e\	.	.	.	8C/J	.	.	.	.
!	!	!LO:LB:g=original	!	!LO:LB:g=original	!LO:LB:g=original	!	!	!	!	!	!	!	!	!LO:LB:g=original	!	!
*	*	*	*	*	*	*	*v	*v	*	*	*	*	*	*	*	*
=47	=47	=47	=47	=47	=47	=47	=47	=47	=47	=47	=47	=47	=47	=47	=47
!	!	!	!LO:DY:b:t=p&colon;	!	!	!	!	!	!	!	!	!	!	!	!
8C/L	.	8c\L	p	8cc/	8e\	.	8cc 8e/	.	4c/	4cc\	8C/L	.	4r	.	4r
!	!	!	!	!	!	!LO:DY:a	!	!	!	!	!	!LO:DY:b:t=p.	!	!	!
8C/	.	8c\	.	8r	2..ryy	p	8r	.	.	.	8C/	p	.	.	.
!	!	!	!	!	!	!	!LO:LB:g=original	!LO:DY:a:t=pia	!	!	!	!	!	!	!
8C/	.	8c\	.	8gg\	.	.	8bb-\	p	4r	4r	8C/	.	4gg\	.	4bb-X\
!	!LO:DY:t=p.	!	!	!	!	!	!	!	!	!	!	!	!	!	!
8C/J	p	8c\J	.	8r	.	.	8r	.	.	.	8C/J	.	.	.	.
8C/L	.	8c\L	.	8ff\	.	.	8aa\	.	2r	2r	8C/L	.	4ff\	.	4aa\
8C/	.	8c\	.	8r	.	.	8r	.	.	.	8C/	.	.	.	.
8C/	.	8c\	.	8ee\	.	.	8gg\	.	.	.	8C/	.	4ee\	.	4gg\
8C/J	.	8c\J	.	8r	.	.	8r	.	.	.	8C/J	.	.	.	.
!LO:LB:g=original	!	!	!	!	!	!	!	!	!	!	!	!	!	!	!
=48	=48	=48	=48	=48	=48	=48	=48	=48	=48	=48	=48	=48	=48	=48	=48
*	*	*	*	*	*	*	*^	*	*	*	*	*	*	*	*
!	!	!	!LO:DY:b:t=for&colon;:rj	!	!	!LO:DY:a	!	!	!	!	!	!	!	!	!	!
8C/L	.	8f\L	f	8ff\	8ryy	f	8ff/	8a\	.	4A/	4f\	8F\L	.	4ff\	.	4ff\
8C/	.	8f\	.	4ff/	4a\	.	4ff\	4a\	.	.	.	8F\	.	.	.	.
!	!	!	!	!	!	!	!	!	!	!	!	!	!LO:DY:b:t=f.	!	!	!
8C/	.	8f\	.	.	.	.	.	.	.	2A/	2f\	8F\	f	4r	.	4r
8C/J	.	8f\J	.	4ff/	4a\	.	4ff\	4a\	.	.	.	8F\J	.	.	.	.
!	!LO:DY:t=f.	!	!	!	!	!	!	!	!	!	!	!	!	!	!	!
8C/L	f	8f\L	.	.	.	.	.	.	.	.	.	8F\L	.	2r	.	2r
8C/	.	8f\	.	4ff/	4a\	.	4ff\	4a\	.	.	.	8F\	.	.	.	.
8C/	.	8f\	.	.	.	.	.	.	.	4A/	4f\	8F\	.	.	.	.
8C/J	.	8f\J	.	8ff/	8a\	.	8ff/	8a\	.	.	.	8F\J	.	.	.	.
!	!	!	!	!	!	!	!	!	!	!	!	!	!	!	!	!LO:LB:g=original
=49	=49	=49	=49	=49	=49	=49	=49	=49	=49	=49	=49	=49	=49	=49	=49	=49
8F\L	.	8f\L	.	8ff/	8a\	.	8ff/	8a\	.	4A/	4f\	8F\L	.	4r	.	4r
!	!LO:DY:t=p.	!	!LO:DY:b:t=p.:rj	!	!	!LO:DY:a	!	!	!	!	!	!	!	!	!	!
8F\	p	8f\	p	8r	8ryy	p	8r	8ryy	.	.	.	8F\	.	.	.	.
8F\	.	8f\	.	8bb-\	4ryy	.	8ddd\	4ryy	.	4r	4r	8F\	.	4b-\	.	(>4dd\
!	!	!	!	!	!	!	!	!	!	!	!	!	!LO:DY:b:t=p.	!	!	!
8F\J	.	8f\J	.	8r	.	.	8r	.	.	.	.	8F\J	p	.	.	.
8F\L	.	8f\L	.	8aa\	2ryy	.	8ccc\	2ryy	.	2re	2r	8F\L	.	4a\	.	4cc\
8F\	.	8f\	.	8r	.	.	8r	.	.	.	.	8F\	.	.	.	.
8F\	.	8f\	.	8gg\	.	.	8bb-\	.	.	.	.	8F\	.	4g\	.	4b-\)
8F\J	.	8f\J	.	8r	.	.	8r	.	.	.	.	8F\J	.	.	.	.
=50	=50	=50	=50	=50	=50	=50	=50	=50	=50	=50	=50	=50	=50	=50	=50	=50
8F\L	.	8f\L	.	8ff/	8a\	.	8aa\	8ryy	.	4A/	4f\	8F\L	.	4f/	.	4a/
8F\	.	8f\	.	4ff/	4a\	.	4ff/	4a\	.	.	.	8F\	.	.	.	.
!	!	!	!LO:DY:b:t=f&colon;	!	!	!	!	!	!	!	!	!	!	!	!	!
!	!	!	!	!	!	!	!	!	!	!	!	!	!LO:DY:b:t=f.	!	!	!
8F\	f	8f\	f	.	.	.	.	.	.	2A/	2f\	8F\	f	4r	.	4r
8F\J	.	8f\J	.	4ff/	4a\	.	4ff/	4a\	.	.	.	8F\J	.	.	.	.
8F\L	.	8f\L	.	.	.	.	.	.	.	.	.	8F\L	.	2r	.	2r
8F\	.	8f\	.	4ff/	4a\	.	4ff/	4a\	.	.	.	8F\	.	.	.	.
8F\	.	8f\	.	.	.	.	.	.	.	4A/	4f\	8F\	.	.	.	.
8F\J	.	8f\J	.	8ff/	8a\	.	8ff/	8a\	.	.	.	8F\J	.	.	.	.
=51	=51	=51	=51	=51	=51	=51	=51	=51	=51	=51	=51	=51	=51	=51	=51	=51
!	!LO:DY:t=p.	!	!LO:DY:b	!	!	!	!	!	!	!	!	!	!	!	!	!
8F\L	p	8f\L	p	8ff/	8a\	.	8ff/	8a\	.	4A/	4f\	8F\L	.	4r	.	4r
*	*	*	*	*v	*v	*	*	*	*	*	*	*	*	*	*	*
!	!	!	!	!	!	!	!	!	!	!	!	!LO:DY:b	!	!	!
8F\	.	8f\	.	8r	.	8r	8ryy	.	.	.	8F\	p	.	.	.
8F\	.	8f\	.	8cc\	.	8ee-X\	4ryy	.	4r	4r	8F\	.	(>4cc\	.	(>4ee-X\
8F\J	.	8f\J	.	8r	.	8r	.	.	.	.	8F\J	.	.	.	.
8F\L	.	8f\L	.	8b-\	.	8dd\	2ryy	.	2re	2r	8F\L	.	4b-\	.	4dd\
8F\	.	8f\	.	8r	.	8r	.	.	.	.	8F\	.	.	.	.
8F\	.	8f\	.	8a/	.	8cc\	.	.	.	.	8F\	.	4a\)	.	4cc\)
8F\J	.	8f\J	.	8r	.	8r	.	.	.	.	8F\J	.	.	.	.
!	!	!	!	!LO:LB:g=original	!	!	!	!	!	!LO:LB:g=original	!	!	!	!	!
*	*	*	*	*	*	*v	*v	*	*	*	*	*	*	*	*
=52	=52	=52	=52	=52	=52	=52	=52	=52	=52	=52	=52	=52	=52	=52
!	!	!	!	!	!	!	!	!LO:TX:a:t=10	!LO:TX:a:t=10	!	!	!	!	!
4G\	.	4g\	.	(>16b-\LL	.	(>16b-\LL	.	00r	00r	4G\	.	4b-\	.	4dd\
.	.	.	.	16dd\	.	16dd\	.	.	.	.	.	.	.	.
.	.	.	.	16een\	.	16een\	.	.	.	.	.	.	.	.
.	.	.	.	16ff\JJ)	.	16ff\JJ)	.	.	.	.	.	.	.	.
8r	.	4r	.	8gg\L|	.	8gg\L|	.	.	.	4r	.	4r	.	4r
8r	.	.	.	8ee\J|	.	8ee\J|	.	.	.	.	.	.	.	.
8r	.	8r	.	8ff\L|	.	8ff\L	.	.	.	8r	.	8r	.	8r
!LO:TX:a:t=P:problem=mixed beam	!	!LO:TX:a:t=P:problem=mixed beam	!	!	!	!	!	!	!	!LO:TX:a:t=P:problem=mixed beam	!	!	!	!
8B-\L	.	8b-\L	.	8b-\|	.	8b-\	.	.	.	8B-\L	.	8b-'\L	.	8dd\L
!	!	!	!	!	!	!LO:TX:a:t=c	!	!	!	!	!	!	!	!
8c\	.	8cc\	.	8cc\|	.	8ee\ 8cc\	.	.	.	8c\	.	8a'\	.	8cc\
8C/J	.	8c/J	.	8g\J|	.	8g\J	.	.	.	8C/J	.	8g'\J	.	8b-\J
!	!	!	!	!	!	!LO:LB:g=original	!	!	!	!	!	!	!	!
=53	=53	=53	=53	=53	=53	=53	=53	=53	=53	=53	=53	=53	=53	=53
4F\	.	4f\	.	(>16a\LL	.	(>16a\LL	.	.	.	4F\	.	4a/	.	4cc\
.	.	.	.	16cc\	.	16cc\	.	.	.	.	.	.	.	.
.	.	.	.	16dd\	.	16dd\	.	.	.	.	.	.	.	.
.	.	.	.	16ee\JJ)	.	16ee\JJ)	.	.	.	.	.	.	.	.
4r	.	4r	.	8ff\L|	.	8ff\L|	.	.	.	4r	.	4r	.	4r
.	.	.	.	8cc\J|	.	8cc\J|	.	.	.	.	.	.	.	.
8r	.	8r	.	8dd\L|	.	8dd/L|	.	.	.	8r	.	8r	.	8r
!LO:TX:a:t=P:problem=mixed beam	!	!LO:TX:a:t=P:problem=mixed beam	!	!	!	!	!	!	!	!LO:TX:a:t=P:problem=mixed beam	!	!	!	!
8A\L	.	8a\L	.	8a\|	.	8a/|	.	.	.	8A\L	.	8a/L	.	8cc'\L
8B-\	.	8b-\	.	8b-\|	.	8b-/|	.	.	.	8B-\	.	8g/	.	8b-'\
8BB-/J	.	8B-/J	.	8f\J|	.	8f/J|	.	.	.	8BB-/J	.	8f/J	.	8a'\J
!	!	!	!	!	!	!	!	!	!	!LO:LB:g=original	!	!LO:LB:g=original	!	!
=54	=54	=54	=54	=54	=54	=54	=54	=54	=54	=54	=54	=54	=54	=54
4E\	.	4e\	.	(>16g\LL	.	(>16g\LL	.	.	.	4E\	.	4g/	.	4b-\
.	.	.	.	16b-\	.	16b-\	.	.	.	.	.	.	.	.
.	.	.	.	16cc\	.	16cc\	.	.	.	.	.	.	.	.
.	.	.	.	16dd\JJ)	.	16dd\JJ)	.	.	.	.	.	.	.	.
4r	.	4r	.	8ee\L|	.	8ee\L|	.	.	.	4r	.	4r	.	4r
.	.	.	.	8b-\J|	.	8b-\J|	.	.	.	.	.	.	.	.
8r	.	8r	.	8cc#X/L|	.	8cc#X/L|	.	.	.	8r	.	8r	.	8r
!LO:TX:a:t=P:problem=mixed beam	!	!LO:TX:a:t=P:problem=mixed beam	!	!	!	!	!	!	!	!LO:TX:a:t=P:problem=mixed beam	!	!	!	!
8G\L	.	8g\L	.	8g/|	.	8g/|	.	.	.	8G\L	.	8g/L	.	8b-'\L
8A\	.	8a\	.	8a/|	.	8a/|	.	.	.	8A\	.	8f/	.	8a'\
8AA/J	.	8A/J	.	8e/J|	.	8f/J|	.	.	.	8AA/J	.	8e/J	.	8g'\J
!	!	!LO:LB:g=original	!	!	!	!	!	!	!	!	!	!	!	!
=55	=55	=55	=55	=55	=55	=55	=55	=55	=55	=55	=55	=55	=55	=55
8D\L	.	8d\L	.	8f/L|	.	8e/L	.	.	.	8D\L	.	4f/	.	4a/
8E\	.	8e\	.	8c#X/|	.	8c#X/	.	.	.	8E\	.	.	.	.
!	!	!	!	!	!	!	!	!	!	!	!	!	!	!LO:LB:g=original
8F\	.	8f\	.	8d/|	.	8d/	.	.	.	8F\	.	8r	.	8r
8G#X\J	.	8g#X\J	.	8G#X/J|	.	8G#X/J	.	.	.	8G#X\J	.	8g#X/	.	8g#X/
4A\	.	4a\	.	4A/	.	4A/	.	.	.	4A\	.	4a/	.	4a/
4r	.	4r	.	4r	.	4r	.	.	.	4r	.	4r	.	4r
=56	=56	=56	=56	=56	=56	=56	=56	=56	=56	=56	=56	=56	=56	=56
!	!	!	!	!	!	!	!	!	!	!	!	!LO:TX:a:t=6	!	!LO:TX:a:t=6
8AA/L	.	4c#X\	.	8r	.	8r	.	00r	00r	4E\	.	00r	.	00r
8AA/	.	.	.	4ff\	.	4gg\	.	.	.	.	.	.	.	.
8AA/	.	4r	.	.	.	.	.	.	.	4r	.	.	.	.
!	!LO:DY:t=p.	!	!	!	!	!	!	!	!	!	!	!	!	!
8AA/J	p	.	.	(>4dd\	.	(>4ee\	.	.	.	.	.	.	.	.
8AA/L	.	2r	.	.	.	.	.	.	.	2r	.	.	.	.
8AA/	.	.	.	4cc#X\)	.	4cc#X\)	.	.	.	.	.	.	.	.
8AA/	.	.	.	.	.	.	.	.	.	.	.	.	.	.
8AA/J	.	.	.	8g/	.	8g/	.	.	.	.	.	.	.	.
!LO:LB:g=original	!	!	!	!LO:LB:g=original	!	!	!	!	!	!	!	!	!	!
=57	=57	=57	=57	=57	=57	=57	=57	=57	=57	=57	=57	=57	=57	=57
8AA/L	.	8r	.	8g/	.	(<8g/	.	.	.	8r	.	.	.	.
8AA/	.	(>4c#X\	.	(<4e/	.	4e/)	.	.	.	4E\	.	.	.	.
8AA/	.	.	.	.	.	.	.	.	.	.	.	.	.	.
8AA/J	.	4e\	.	8c#X/)	.	8c#X/	.	.	.	4G\	.	.	.	.
8AA/L	.	.	.	2c#/	.	2c#t/	.	.	.	.	.	.	.	.
8AA/	.	4d\	.	.	.	.	.	.	.	4F\	.	.	.	.
8AA/	.	.	.	.	.	.	.	.	.	.	.	.	.	.
8AA/J	.	8c#\)	.	.	.	.	.	.	.	8E\	.	.	.	.
=58	=58	=58	=58	=58	=58	=58	=58	=58	=58	=58	=58	=58	=58	=58
8AA/L	.	4d\	.	8r	.	8r	.	.	.	4F\	.	.	.	.
8AA/	.	.	.	4aa\	.	(>4aa\	.	.	.	.	.	.	.	.
8AA/	.	4r	.	.	.	.	.	.	.	4r	.	.	.	.
8AA/J	.	.	.	(>4gg\	.	4ff\	.	.	.	.	.	.	.	.
8AA/L	.	2r	.	.	.	.	.	.	.	2r	.	.	.	.
8AA/	.	.	.	4dd\)	.	4dd\)	.	.	.	.	.	.	.	.
8AA/	.	.	.	.	.	.	.	.	.	.	.	.	.	.
8AA/J	.	.	.	8a/	.	8a/	.	.	.	.	.	.	.	.
!	!	!	!	!	!	!LO:LB:g=original	!	!	!	!	!	!	!	!
=59	=59	=59	=59	=59	=59	=59	=59	=59	=59	=59	=59	=59	=59	=59
8AA/L	.	8r	.	8a/	.	8a/	.	.	.	8r	.	.	.	.
8AA/	.	4d\	.	(<4f/	.	4f/	.	.	.	4F\	.	.	.	.
8AA/	.	.	.	.	.	.	.	.	.	.	.	.	.	.
8AA/J	.	4f\	.	8d/)	.	8d/	.	.	.	4A\	.	.	.	.
8AA/L	.	.	.	2d/	.	2dT/	.	.	.	.	.	.	.	.
8AA/	.	4e\	.	.	.	.	.	.	.	4G\	.	.	.	.
8AA/	.	.	.	.	.	.	.	.	.	.	.	.	.	.
8AA/J	.	8d\	.	.	.	.	.	.	.	8F\	.	.	.	.
=60	=60	=60	=60	=60	=60	=60	=60	=60	=60	=60	=60	=60	=60	=60
8BBn/L	.	4e\	.	8r	.	8r	.	0r	0r	4G#X\	.	0r	.	0r
8BBn/	.	.	.	4dd\	.	(>4dd\	.	.	.	.	.	.	.	.
8BBn/	.	4r	.	.	.	.	.	.	.	4r	.	.	.	.
8BBn/J	.	.	.	(>4bn\	.	4bn\	.	.	.	.	.	.	.	.
8BB/L	.	2r	.	.	.	.	.	.	.	2rC	.	.	.	.
8BB/	.	.	.	4g#X/)	.	4g#X/)	.	.	.	.	.	.	.	.
8BB/	.	.	.	.	.	.	.	.	.	.	.	.	.	.
8BB/J	.	.	.	8d/	.	8d/	.	.	.	.	.	.	.	.
!	!	!	!	!	!	!	!	!	!	!LO:LB:g=original	!	!	!	!
=61	=61	=61	=61	=61	=61	=61	=61	=61	=61	=61	=61	=61	=61	=61
8BB-/L	.	8r	.	8d/	.	8d/	.	.	.	8r	.	.	.	.
8BB-/	.	4g#X\	.	4Bn/	.	4Bn/	.	.	.	4Bn\	.	.	.	.
8BB-/	.	.	.	.	.	.	.	.	.	.	.	.	.	.
8BB-/J	.	4bn\	.	8G#X/	.	8G#X/	.	.	.	4d\	.	.	.	.
8BB-/L	.	.	.	2G#/	.	2G#t/	.	.	.	.	.	.	.	.
8BB-/	.	4a\	.	.	.	.	.	.	.	4c#X\	.	.	.	.
8BB-/	.	.	.	.	.	.	.	.	.	.	.	.	.	.
8BB-/J	.	8g#X\	.	.	.	.	.	.	.	8B\	.	.	.	.
!	!	!LO:LB:g=original	!	!	!	!	!	!	!	!	!	!	!	!
=62	=62	=62	=62	=62	=62	=62	=62	=62	=62	=62	=62	=62	=62	=62
*Xtremolo	*	*	*	*	*	*	*	*	*	*Xtremolo	*	*	*	*
8A\L	.	8a\L	.	8A/	.	8A/	.	4A/	4a\	8A\L	.	2r	.	4r
!	!	!	!	!	!	!	!	!	!	!	!	!	!	!LO:TX:a:i:t=Solo
8A\	.	8a\	.	8r	.	8r	.	.	.	8A\	.	.	.	.
8G\	.	8a\	.	(>16cc#X\LL	.	(>16cc#X\LL	.	4r	4r	8G\	.	.	.	8cc#X\L
.	.	.	.	16ee\	.	16ee\	.	.	.	.	.	.	.	.
8G\J	.	8a\J	.	16dd\	.	16dd\	.	.	.	8G\J	.	.	.	8ee\J
.	.	.	.	16cc#\JJ)	.	16cc#\JJ)	.	.	.	.	.	.	.	.
8F\L	.	8a\L	.	8dd\	.	8dd\	.	4A/	4a\	8F\L	.	4r	.	4dd\
8F\	.	8a\	.	8r	.	8r	.	.	.	8F\	.	.	.	.
!	!	!	!	!LO:LB:g=original	!	!	!	!	!	!	!	!	!	!
8D\	.	8a\	.	(>16dd\LL	.	(>16dd\LL	.	4r	4r	8D\	.	4dd\	.	8dd\L
.	.	.	.	16ff\	.	16ff\	.	.	.	.	.	.	.	.
8D\J	.	8a\J	.	16ee\	.	16ee\	.	.	.	8D\J	.	.	.	8ff\J
.	.	.	.	16dd\JJ)	.	16dd\JJ)	.	.	.	.	.	.	.	.
!	!	!	!	!	!	!	!	!LO:LB:g=original	!	!	!	!	!	!
=63	=63	=63	=63	=63	=63	=63	=63	=63	=63	=63	=63	=63	=63	=63
8C#X/L	.	8a\L	.	8ee\	.	8ee\	.	4A/	4a\	8C#X/L	.	4cc#X\	.	4ee\
8C#/	.	8a\	.	8r	.	8r	.	.	.	8C#/	.	.	.	.
8AA/	.	8a\	.	(>16ee\LL	.	16ee\LL	.	4r	4r	8AA/	.	8cc#\L	.	8ee\L
.	.	.	.	16gg\	.	16gg\	.	.	.	.	.	.	.	.
8AA/J	.	8a\J	.	16ff\	.	16ff\	.	.	.	8AA/J	.	8ee\J	.	8gg\J
.	.	.	.	16ee\JJ)	.	16ee\JJ	.	.	.	.	.	.	.	.
8D/L	.	8a\L	.	8ff\	.	8ff\	.	4A/	4a\	8D/L	.	4dd\	.	4ff\
8AA/	.	8a\	.	8r	.	8r	.	.	.	8AA/	.	.	.	.
8D/	.	8a\	.	(>16ff\LL	.	16ff\LL	.	4r	4r	8D/	.	8dd\L	.	(>8ff\L
.	.	.	.	16aa\	.	16aa\	.	.	.	.	.	.	.	.
8AA/J	.	8a\J	.	16gg\	.	16gg\	.	.	.	8AA/J	.	8ff\J	.	8aa\J)
.	.	.	.	16ff\JJ)	.	16ff\JJ	.	.	.	.	.	.	.	.
!	!	!	!	!	!	!LO:LB:g=original	!	!	!	!	!	!	!	!
=64	=64	=64	=64	=64	=64	=64	=64	=64	=64	=64	=64	=64	=64	=64
8C#X/L	.	8a\L	.	8gg\	.	8gg\	.	4A/	4a\	8C#X/L	.	4ee\	.	4gg\
8AA/	.	8a\	.	8r	.	8r	.	.	.	8AA/	.	.	.	.
8C#/	.	8a\	.	(>16gg\LL	.	16gg\LL	.	4r	4r	8C#/	.	8ee\L	.	8gg\L
.	.	.	.	16bb-\)	.	16bb-\	.	.	.	.	.	.	.	.
8AA/J	.	8a\J	.	16aa\	.	16aa\	.	.	.	8AA/J	.	8gg\J	.	8bb-\J
.	.	.	.	16gg\JJ	.	16gg\JJ	.	.	.	.	.	.	.	.
!LO:TX:a:t=P:problem=mixed beam	!	!	!	!	!	!	!	!	!	!LO:TX:a:t=P:problem=mixed beam	!	!	!	!
8D\L	.	8a\L	.	8ff\L	.	8ff\L	.	4A/	4a\	8D\L	.	8ff\L	.	8aa\L
8D\	.	8g\	.	8ee\	.	8ee\	.	.	.	8D\	.	8ee\	.	8gg\
8A\	.	8f\	.	8dd\	.	8dd\	.	4r	4r	8A\	.	8dd\	.	8ff\
8AA/J	.	8e\J	.	8cc#X\J	.	8cc#X\J	.	.	.	8AA/J	.	8cc#X\J	.	8ee\J
!LO:LB:g=original	!	!	!	!	!	!	!	!	!	!	!	!	!	!
=65	=65	=65	=65	=65	=65	=65	=65	=65	=65	=65	=65	=65	=65	=65
8D/L	.	8d\L	.	8dd\	.	8dd\	.	4A/	4a\	8D/L	.	4dd\	.	4dd\
8AA/	.	8a\	.	8r	.	8r	.	.	.	8AA/	.	.	.	.
8C#X/	.	8a\	.	(>16ee\LL	.	(>16ee\LL	.	4r	4r	8C#X/	.	8cc#X\L	.	8ee\L
.	.	.	.	16gg\)	.	16gg\	.	.	.	.	.	.	.	.
8AA/J	.	8a\J	.	16ff\	.	16ff\	.	.	.	8AA/J	.	8ee\J	.	8gg\J
.	.	.	.	16ee\JJ	.	16ee\JJ)	.	.	.	.	.	.	.	.
8D/L	.	8a\L	.	8ff\	.	8ff\	.	4A/	4a\	8D/L	.	4dd\	.	4ff\
8AA/	.	8a\	.	8r	.	8r	.	.	.	8AA/	.	.	.	.
8D/	.	8a\	.	16ff\LL	.	16ff\LL	.	4r	4r	8D/	.	8dd\L	.	8ff\L
.	.	.	.	16aa\	.	16aa\	.	.	.	.	.	.	.	.
8AA/J	.	8a\J	.	16gg\	.	16gg\	.	.	.	8AA/J	.	8ff\J	.	8aa\J
.	.	.	.	16ff\JJ	.	16ff\JJ	.	.	.	.	.	.	.	.
!	!	!	!	!	!	!	!	!	!	!	!	!LO:LB:g=original	!	!
=66	=66	=66	=66	=66	=66	=66	=66	=66	=66	=66	=66	=66	=66	=66
!	!	!	!	!	!	!	!	!	!	!LO:TX:a:t=P:problem=mixed beam	!	!	!	!
8E/L	.	8a\L	.	8gg\	.	8gg\	.	4A/	4a\	8E\L	.	4ee\	.	4gg\
8AA/	.	8a\	.	8r	.	8r	.	.	.	8AA/J	.	.	.	.
8C#X/	.	8a\	.	(>16gg\LL	.	16gg\LL	.	4r	4r	8C#X/L	.	8ee\L	.	8gg\L
.	.	.	.	16bb-\	.	16bb-\	.	.	.	.	.	.	.	.
8AA/J	.	8a\J	.	16aa\	.	16aa\	.	.	.	8AA/J	.	8gg\J	.	8bb-\J
.	.	.	.	16gg\JJ)	.	16gg\JJ	.	.	.	.	.	.	.	.
!LO:TX:a:t=P:problem=mixed beam	!	!	!	!	!	!	!	!	!	!LO:TX:a:t=P:problem=mixed beam	!	!	!	!LO:LB:g=original
8D\L	.	8a\L	.	8ff\L	.	8ff\L	.	4A/	4a\	8D\L	.	8ff\L	.	8aa\L
8D\	.	8g\	.	8ee\	.	8ee\	.	.	.	8D\	.	8ee\	.	8gg\
8A\	.	8f\	.	8dd\	.	8dd\	.	4A/	4b-\	8A\	.	8dd\	.	8ff\
8AA/J	.	8e\J	.	8cc#X\J	.	8cc#X\J	.	.	.	8AA/J	.	8cc#X\J	.	8ee\J
!	!	!	!	!LO:LB:g=original	!	!	!	!	!	!LO:LB:g=original	!	!	!	!
=67	=67	=67	=67	=67	=67	=67	=67	=67	=67	=67	=67	=67	=67	=67
!	!	!	!	!	!	!	!	!LO:TX:a:t=5	!LO:TX:a:t=5	!	!	!	!	!
4D\	.	4d\	.	(>16dd\LL	.	(>16dd\LL	.	00r	00r	4D\	.	4dd\	.	4dd\
.	.	.	.	16ff\	.	16ff\	.	.	.	.	.	.	.	.
.	.	.	.	16gg\	.	16gg\	.	.	.	.	.	.	.	.
.	.	.	.	16aa\JJ)	.	16aa\JJ)	.	.	.	.	.	.	.	.
4r	.	4r	.	8bb-\L	.	8bb-\L|	.	.	.	4r	.	4r	.	4r
.	.	.	.	8ff\J	.	8ff\J|	.	.	.	.	.	.	.	.
8r	.	8r	.	8gg\L	.	8aa\L|	.	.	.	8r	.	8r	.	8r
!LO:TX:a:t=P:problem=mixed beam	!	!LO:TX:a:t=P:problem=mixed beam	!	!	!	!	!	!	!	!LO:TX:a:t=P:problem=mixed beam	!	!	!	!
8F\L	.	8f\L	.	8dd\	.	8dd\|	.	.	.	8F\L	.	(>8ff\L	.	8ff'\L
8G\	.	8g\	.	8ee\	.	8ee\|	.	.	.	8G\	.	8ee\	.	8ee'\
8GG/J	.	8G/J	.	8bn\J	.	8bn\J|	.	.	.	8GG/J	.	8dd\J)	.	8dd'\J
=68	=68	=68	=68	=68	=68	=68	=68	=68	=68	=68	=68	=68	=68	=68
4Cn/	.	4cn\	.	(>16cc\LL	.	(>16cc\LL	.	.	.	4C/	.	4cc\	.	4cc\
.	.	.	.	16ee\	.	16ee\	.	.	.	.	.	.	.	.
.	.	.	.	16ff\)	.	16ff\	.	.	.	.	.	.	.	.
.	.	.	.	16gg'\JJ	.	16gg\JJ)	.	.	.	.	.	.	.	.
!	!	!	!	!	!	!LO:LB:g=original	!	!	!	!	!	!	!	!
4r	.	4r	.	8aa\L	.	8aa\L|	.	.	.	4r	.	4r	.	4r
.	.	.	.	8ee\J	.	8ee\J|	.	.	.	.	.	.	.	.
8r	.	8r	.	8ff\L|	.	8ff\L|	.	.	.	8r	.	8r	.	8r
!LO:TX:a:t=P:problem=mixed beam	!	!LO:TX:a:t=P:problem=mixed beam	!	!	!	!	!	!	!	!LO:TX:a:t=P:problem=mixed beam	!	!	!	!
8E\L	.	8e\L	.	8cc#X\|	.	8cc#X\|	.	.	.	8E\L	.	8ee'\L	.	8ee\L
8F\	.	8f\	.	8dd\|	.	8dd\|	.	.	.	8F\	.	8dd'\	.	8dd\
8FF/J	.	8F/J	.	8a\J|	.	8a\J|	.	.	.	8FF/J	.	8cc#X'\J	.	8cc#X\J
!	!	!LO:LB:g=original	!	!	!	!	!	!	!	!	!	!	!	!
=69	=69	=69	=69	=69	=69	=69	=69	=69	=69	=69	=69	=69	=69	=69
4BB-X/	.	4B-X/	.	16b-\LL	.	(>16b-\LL	.	.	.	4BB-X/	.	4b-X\	.	4b-\
.	.	.	.	(>16dd\	.	16dd\	.	.	.	.	.	.	.	.
.	.	.	.	16ee\	.	16ee\	.	.	.	.	.	.	.	.
.	.	.	.	16ff\JJ)	.	16ff\JJ)	.	.	.	.	.	.	.	.
4r	.	4r	.	8gg\L	.	8gg\L|	.	.	.	4r	.	4r	.	4r
.	.	.	.	8dd\J	.	8dd\J|	.	.	.	.	.	.	.	.
8r	.	8r	.	8ee\L	.	8ee\L|	.	.	.	8r	.	8r	.	8r
!LO:TX:a:t=P:problem=mixed beam	!	!LO:TX:a:t=P:problem=mixed beam	!	!	!	!	!	!	!	!LO:TX:a:t=P:problem=mixed beam	!	!	!	!
8D\L	.	8d\L	.	8b-\	.	8b-\|	.	.	.	8D\L	.	8dd\L	.	8dd'\L
8E\	.	8e\	.	8cc#X\	.	8cc#X\|	.	.	.	8E\	.	8cc#X\	.	8cc#X'\
8EE/J	.	8E/J	.	8g\J	.	8g\J|	.	.	.	8EE/J	.	8bn\J	.	8b-'\J
=70	=70	=70	=70	=70	=70	=70	=70	=70	=70	=70	=70	=70	=70	=70
4AA/	.	4A/	.	(>16a\LL	.	(16a\LL	.	.	.	4AA/	.	4a/	.	4g/
.	.	.	.	16cc#X\	.	16cc#X\	.	.	.	.	.	.	.	.
.	.	.	.	16dd\	.	16dd\	.	.	.	.	.	.	.	.
.	.	.	.	16ee\JJ)	.	16ee\JJ)	.	.	.	.	.	.	.	.
4r	.	4r	.	8ff\L	.	8ff\L|	.	.	.	4r	.	4r	.	4r
.	.	.	.	8dd\J	.	8cc#X\J|	.	.	.	.	.	.	.	.
8r	.	8r	.	8b-\L|	.	8b-\L|	.	.	.	8r	.	8r	.	8r
!LO:TX:a:t=P:problem=mixed beam	!	!LO:TX:a:t=P:problem=mixed beam	!	!	!	!	!	!	!	!LO:TX:a:t=P:problem=mixed beam	!	!	!	!
8C#X\L	.	8c#X\L	.	8a\|	.	8a\J|	.	.	.	8C#X\L	.	8cc#X\L	.	8cc#X'\L
8D\	.	8d\	.	8b-\|	.	8b-\L|	.	.	.	8D\	.	8b-\	.	8b-'\
8DD/J	.	8D/J	.	8f\J|	.	8f\J|	.	.	.	8DD/J	.	8a\J	.	8a'\J
!	!	!	!	!	!	!	!	!	!	!	!	!LO:LB:g=original	!	!
=71	=71	=71	=71	=71	=71	=71	=71	=71	=71	=71	=71	=71	=71	=71
*	*	*Xtremolo	*	*	*	*	*	*	*	*	*	*	*	*
4GG/	.	8G/L	.	8g/L	.	8g/L	.	1r	1r	4GG/	.	4g/	.	4g/
.	.	8G/	.	8e/	.	8e/	.	.	.	.	.	.	.	.
4AA/	.	8A/	.	8a/	.	8a/	.	.	.	4AA/	.	4a/	.	4a/
.	.	8A/J	.	8A/J	.	8A/J	.	.	.	.	.	.	.	.
!	!	!	!	!LO:LB:g=original	!	!	!	!	!	!	!	!	!	!
!LO:TX:a:t=P:problem=mixed beam	!	!LO:TX:a:t=P:problem=mixed beam	!	!	!	!	!	!	!	!LO:TX:a:t=P:problem=mixed beam	!	!	!	!
8DD/L	.	8D/L	.	4d/	.	4d/	.	.	.	8DD/L	.	4d/	.	4d/
8B-\	.	8b-\	.	.	.	.	.	.	.	8B-\	.	.	.	.
8A\	.	8a\	.	4r	.	4r	.	.	.	8A\	.	4r	.	4r
8G\J	.	8g\J	.	.	.	.	.	.	.	8G\J	.	.	.	.
!LO:LB:g=original	!	!	!	!	!	!	!	!	!	!	!	!	!	!LO:LB:g=original
=72	=72	=72	=72	=72	=72	=72	=72	=72	=72	=72	=72	=72	=72	=72
*tremolo	*	*tremolo	*	*	*	*	*	*	*	*tremolo	*	*	*	*
*	*	*	*	*^	*	*^	*	*	*	*	*	*	*	*
!	!	!	!	!	!	!LO:DY:a:t=for	!	!	!	!	!	!	!	!	!	!
8F\L	.	8f\L	.	8ff/	8a\	f	8ff/	8a\	.	4A/	4f\	8F\L	.	1r	.	1r
8F\	.	8f\	.	4ff/	4a\	.	4ff/	4a\	.	.	.	8F\	.	.	.	.
!	!	!	!LO:DY:b	!	!	!	!	!	!	!	!	!	!LO:DY:b:t=f.	!	!	!
8F\	.	8f\	f	.	.	.	.	.	.	2A/	2f\	8F\	f	.	.	.
8F\J	f	8f\J	.	4ff/	4a\	.	4ff/	4a\	.	.	.	8F\J	.	.	.	.
8F\L	.	8f\L	.	.	.	.	.	.	.	.	.	8F\L	.	.	.	.
8F\	.	8f\	.	4ff/	4a\	.	4ff/	4a\	.	.	.	8F\	.	.	.	.
8F\	.	8f\	.	.	.	.	.	.	.	4A/	4f\	8F\	.	.	.	.
8F\J	.	8f\J	.	8ff/	8a\	.	8ff/	8a\	.	.	.	8F\J	.	.	.	.
!	!	!	!	!	!	!	!	!	!	!	!LO:LB:g=original	!	!	!	!	!
=73	=73	=73	=73	=73	=73	=73	=73	=73	=73	=73	=73	=73	=73	=73	=73	=73
8F\L	.	8f\L	.	8ff/	8a\	.	8ff/	8a\	.	4A/	4f\	8F\L	.	4r	.	2r
!	!	!	!	!	!	!LO:DY:a	!	!	!	!	!	!	!	!	!	!
8F\	.	8f\	.	8r	8ryy	p	8r	8ryy	.	.	.	8F\	.	.	.	.
!	!	!	!	!	!	!	!	!	!	!	!	!	!LO:DY:b	!	!	!
8F\	.	8f\	.	8bb-\	4ryy	.	8ddd\	4ryy	.	4r	4r	8F\	p	4b-/	.	.
8F\J	.	8f\J	.	8r	.	.	8r	.	.	.	.	8F\J	.	.	.	.
!	!LO:DY:t=p.	!	!	!	!	!	!LO:LB:g=original	!	!	!	!	!	!	!	!	!
8F\L	p	8f\L	.	8aa\	2ryy	.	8ccc\	2ryy	.	2r	2r	8F\L	.	4a/	.	8r
8F\	.	8f\	.	8r	.	.	8r	.	.	.	.	8F\	.	.	.	(>8dd\L
8F\	.	8f\	.	8gg\	.	.	8bb-\	.	.	.	.	8F\	.	4g/	.	8cc\
8F\J	.	8f\J	.	8r	.	.	8r	.	.	.	.	8F\J	.	.	.	8b-\J)
!	!	!	!	!	!	!	!	!	!	!	!	!LO:LB:g=original	!	!	!	!
=74	=74	=74	=74	=74	=74	=74	=74	=74	=74	=74	=74	=74	=74	=74	=74	=74
!	!	!	!	!	!	!LO:DY:b:t=f.	!	!	!	!	!	!	!	!	!	!
8F\L	.	8f\L	.	8ff/	8ryy	f	8aa\	8ryy	.	4A/	4f\	8F\L	.	4f/	.	4a/
8F\	.	8f\	.	4ff/	4a\	.	4ff/	4a\	.	.	.	8F\	.	.	.	.
!	!	!	!	!	!	!	!	!	!	!	!	!	!LO:DY:b	!	!	!
8F\	.	8f\	.	.	.	.	.	.	.	2A/	2f\	8F\	f	4r	.	4r
8F\J	.	8f\J	.	4ff/	4a\	.	4ff/	4a\	.	.	.	8F\J	.	.	.	.
8F\L	f	8f\L	.	.	.	.	.	.	.	.	.	8F\L	.	2r	.	2r
8F\	.	8f\	.	4ff/	4a\	.	4ff/	4a\	.	.	.	8F\	.	.	.	.
8F\	.	8f\	.	.	.	.	.	.	.	4A/	4f\	8F\	.	.	.	.
8F\J	.	8f\J	.	8ff/	8a\	.	8ff/	8a\	.	.	.	8F\J	.	.	.	.
=75	=75	=75	=75	=75	=75	=75	=75	=75	=75	=75	=75	=75	=75	=75	=75	=75
8F\L	.	8f\L	.	8ff/	8a\	.	8ff/	8a\	.	4A/	4f\	8F\L	.	4r	.	4r
8F\	.	8f\	.	8r	8ryy	.	8r	8ryy	.	.	.	8F\	.	.	.	.
!	!	!	!	!	!	!LO:DY:a:t=pia	!	!	!	!	!	!	!	!	!	!
8F\	.	8f\	.	8dd\	4ryy	p	8bb-\	4ryy	.	4r	4r	8F\	.	(>4dd\	.	(>4bb-\
!	!LO:DY:t=p.	!	!	!	!	!	!	!	!	!	!	!	!	!	!	!
8F\J	p	8f\J	.	8re	.	.	8r	.	.	.	.	8F\J	.	.	.	.
!	!	!	!	!	!	!	!	!	!	!	!	!	!LO:DY:b	!	!	!
8F\L	.	8f\L	.	8cc\	2ryy	.	8aa\	2ryy	.	2r	2r	8F\L	p	4cc\	.	4aa\
8F\	.	8f\	.	8re	.	.	8r	.	.	.	.	8F\	.	.	.	.
8F\	.	8f\	.	8b-\	.	.	8gg\	.	.	.	.	8F\	.	4b-\)	.	4gg\)
8F\J	.	8f\J	.	8re	.	.	8r	.	.	.	.	8F\J	.	.	.	.
*	*	*	*	*v	*v	*	*	*	*	*	*	*	*	*	*	*
!	!	!LO:LB:g=original	!	!	!	!	!	!	!	!LO:LB:g=original	!	!	!	!	!
=76	=76	=76	=76	=76	=76	=76	=76	=76	=76	=76	=76	=76	=76	=76	=76
8F\L	.	8f\L	.	8ff\	.	8ff/	8a\	.	1ryy	4f\	8F\L	.	4a/	.	4ff\
8F\	.	8f\	.	4ff\	.	4ff/	4a\	.	.	.	8F\	.	.	.	.
8F\	.	8f\	.	.	.	.	.	.	.	2f\	8F\	.	4r	.	4r
!	!LO:DY:t=f.	!	!	!	!	!	!	!	!	!	!	!	!	!	!
8F\J	f	8f\J	.	4ff\	.	4ff/	4a\	.	.	.	8F\J	.	.	.	.
!	!	!	!	!	!	!	!	!	!	!	!	!LO:DY:b:t=f.	!	!	!
8F\L	.	8f\L	.	.	.	.	.	.	.	.	8F\L	f	2r	.	2r
8F\	.	8f\	.	4ff\	.	4ff/	4a\	.	.	.	8F\	.	.	.	.
8F\	.	8f\	.	.	.	.	.	.	.	4f\	8F\	.	.	.	.
8F\J	.	8f\J	.	8ff\	.	8ff/	8a\	.	.	.	8F\J	.	.	.	.
*	*	*	*	*	*	*v	*v	*	*	*	*	*	*	*	*
=77	=77	=77	=77	=77	=77	=77	=77	=77	=77	=77	=77	=77	=77	=77
*Xtremolo	*	*	*	*	*	*	*	*	*	*	*	*	*	*
!	!	!	!	!LO:TX:a:t=P:problem=ten takt zapisany jako repetycja taktu 76	!	!	!LO:DY:a:t=pia	!	!	!	!	!	!	!
8F\L	.	8f\L	.	8ff\yy	.	8ff\	p	1ryy	4f\	8F\L	.	4r	.	4r
!	!LO:DY:t=p.	!	!	!	!	!	!	!	!	!	!	!	!	!
8F\	p	8f\	.	4ff\yy	.	4ff\	.	.	.	8F\	.	.	.	.
!	!	!	!	!	!	!	!	!	!	!	!	!LO:TX:a:i:t=Solo	!	!LO:TX:a:i:t=Solo
8A\	.	8a\	.	.	.	.	.	.	4r	8A\	.	8a\L	.	8cc\L
8A\J	.	8f\J	.	4ff\yy	.	4ff\	.	.	.	8F\J	.	(>8cc\J	.	8ee-X\J
8B-\L	.	8b-\L	.	.	.	.	.	.	2r	8B-\L	.	4b-\	.	4dd\
8F\	.	8f\	.	4ff\yy	.	4ff\	.	.	.	8F\	.	.	.	.
8A\	.	8a\	.	.	.	.	.	.	.	8A\	.	8a\L)	.	8cc\L
8F\J	.	8f\J	.	8ff\yy	.	8ff\	.	.	.	8F\J	.	8cc\J	.	8ee-X\J
!	!	!	!	!LO:LB:g=original	!	!	!	!	!	!	!	!	!	!
=78	=78	=78	=78	=78	=78	=78	=78	=78	=78	=78	=78	=78	=78	=78
*	*	*	*	*	*	*	*	*	*	*Xtremolo	*	*	*	*
!	!	!	!	!	!	!	!	!LO:TX:a:t=3	!LO:TX:a:t=3	!	!	!	!	!
.	.	.	.	.	.	.	.	.	.	.	.	16qqcc/	.	.
8B-\L	.	8b-\L	.	8ff\	.	8ff\	.	0r	0r	8A\L	.	4b-\	.	4dd\
8F\	.	8f\	.	4ff\	.	4ff\	.	.	.	8F\	.	.	.	.
8A\	.	8a\	.	.	.	.	.	.	.	8A\	.	8a\L	.	8cc\L
8F\J	.	8f\J	.	4ff\	.	4ff\	.	.	.	8F\J	.	8cc\J	.	8ee-X\J
.	.	.	.	.	.	.	.	.	.	.	.	16qqcc/	.	.
4B-\	.	4b-\	.	.	.	.	.	.	.	4B-\	.	4b-\	.	4dd\
.	.	.	.	4ff\	.	4ff\	.	.	.	.	.	.	.	.
4r	.	4r	.	.	.	.	.	.	.	4r	.	4r	.	4r
.	.	.	.	8ff#X\	.	8ff#X\	.	.	.	.	.	.	.	.
!	!	!	!	!	!	!	!	!	!	!	!	!LO:LB:g=original	!	!LO:LB:g=original
=79	=79	=79	=79	=79	=79	=79	=79	=79	=79	=79	=79	=79	=79	=79
1ryy	.	8b-\L	.	1ryy	.	1ryy	.	.	.	1ryy	.	1ryy	.	1ryy
.	.	8f\	.	.	.	.	.	.	.	.	.	.	.	.
.	.	8a\	.	.	.	.	.	.	.	.	.	.	.	.
.	.	8f\J	.	.	.	.	.	.	.	.	.	.	.	.
.	.	4b-\	.	.	.	.	.	.	.	.	.	.	.	.
.	.	4r	.	.	.	.	.	.	.	.	.	.	.	.
=80	=80	=80	=80	=80	=80	=80	=80	=80	=80	=80	=80	=80	=80	=80
8G\L	.	8g\L	.	8gg\	.	8gg\	.	1r	1r	8G\L	.	4r	.	4r
8G\	.	8g\	.	4gg\	.	4gg\	.	.	.	8G\	.	.	.	.
8Bn\	.	8bn\	.	.	.	.	.	.	.	8Bn\	.	8bn\L	.	8dd\L
8G\J	.	8g\J	.	4gg\	.	4gg\	.	.	.	8G\J	.	8cc\J	.	8ff\J
8c\L	.	8cc\L	.	.	.	.	.	.	.	8c\L	.	4cc\	.	4een\
8G\	.	8g\	.	4gg\	.	4gg\	.	.	.	8G\	.	.	.	.
8Bn\	.	8bn\	.	.	.	.	.	.	.	8Bn\	.	8bn\L	.	8dd\L
!	!	!	!	!	!	!LO:LB:g=original	!	!	!	!	!	!	!	!
8G\J	.	8g\J	.	8gg\	.	8gg\	.	.	.	8G\J	.	8dd\J	.	8ff\J
=81	=81	=81	=81	=81	=81	=81	=81	=81	=81	=81	=81	=81	=81	=81
!	!	!	!	!LO:TX:a:t=P:problem=ten takt zapisany jako repetycja taktu 80	!	!	!	!	!	!	!	!	!	!
8c\L	.	8cc\L	.	8gg\yy	.	8gg\	.	1ryy	1ryy	8c\L	.	4cc\	.	4een\
8G\	.	8g\	.	4gg\yy	.	4gg\	.	.	.	8G\	.	.	.	.
8Bn\	.	8bn\	.	.	.	.	.	.	.	8Bn\	.	(>8bn\L	.	8dd\L
8G\J	.	8g\J	.	4gg\yy	.	4gg\	.	.	.	8G\J	.	8dd\J)	.	8ee\J
!LO:LB:g=original	!	!	!	!	!	!	!	!	!	!	!	!	!	!
4c\	.	4cc\	.	.	.	.	.	.	.	4c\	.	4cc\	.	4ee\
.	.	.	.	4gg\yy	.	4gg\	.	.	.	.	.	.	.	.
4r	.	4r	.	.	.	.	.	.	.	4r	.	4r	.	4r
.	.	.	.	8gg\yy	.	8gg\	.	.	.	.	.	.	.	.
!	!	!LO:LB:g=original	!	!	!	!	!	!	!	!LO:LB:g=original	!	!	!	!
=82	=82	=82	=82	=82	=82	=82	=82	=82	=82	=82	=82	=82	=82	=82
!	!	!LO:TX:a:t=2	!	!	!	!	!	!	!LO:TX:a:i:t=Solo	!LO:TX:a:t=2	!	!LO:TX:a:t=2	!	!LO:TX:a:t=2
8C\L	.	0r	.	4gg\	.	4gg\	.	4r	4r	0r	.	0r	.	0r
8C\	.	.	.	.	.	.	.	.	.	.	.	.	.	.
!	!	!	!	!	!	!	!	!LO:TX:a:i:t=Solo	!	!	!	!	!	!
8E\	.	.	.	4r	.	4r	.	8c\L	8g\L	.	.	.	.	.
8C\J	.	.	.	.	.	.	.	8g\J	8b-\J	.	.	.	.	.
.	.	.	.	.	.	.	.	8qqg	.	.	.	.	.	.
8F\L	.	.	.	2r	.	2r	.	4f\	4a\	.	.	.	.	.
8C\	.	.	.	.	.	.	.	.	.	.	.	.	.	.
8E\	.	.	.	.	.	.	.	8c\L	8g\L	.	.	.	.	.
8C\J	.	.	.	.	.	.	.	8g\J	8b-\J	.	.	.	.	.
=83	=83	=83	=83	=83	=83	=83	=83	=83	=83	=83	=83	=83	=83	=83
!	!	!	!	!LO:TX:a:t=1	!	!LO:TX:a:t=1	!	!	!	!	!	!	!	!
.	.	.	.	.	.	.	.	8qqg/	.	.	.	.	.	.
8F\L	.	.	.	1r	.	1r	.	4f\	4a\	.	.	.	.	.
8C\	.	.	.	.	.	.	.	.	.	.	.	.	.	.
8E\	.	.	.	.	.	.	.	8c\L	8g\L	.	.	.	.	.
8C\J	.	.	.	.	.	.	.	8g\J	8b-\J	.	.	.	.	.
.	.	.	.	.	.	.	.	8qqg/	.	.	.	.	.	.
8F\L	.	.	.	.	.	.	.	4f\	4a\	.	.	.	.	.
8C\	.	.	.	.	.	.	.	.	.	.	.	.	.	.
8E\	.	.	.	.	.	.	.	4c/	4g\	.	.	.	.	.
8C\J	.	.	.	.	.	.	.	.	.	.	.	.	.	.
!	!	!	!	!	!	!	!	!	!LO:LB:g=original	!	!	!	!	!
=84	=84	=84	=84	=84	=84	=84	=84	=84	=84	=84	=84	=84	=84	=84
*tremolo	*	*Xtremolo	*	*	*	*	*	*	*	*tremolo	*	*	*	*
*	*	*	*	*	*	*	*	*clefF4	*	*	*	*	*	*
!	!	!	!LO:DY:b:t=fort	!	!	!	!	!	!	!	!	!	!	!
8C/L	.	8e\L	f	8cc\	.	8ee\	.	4CC/	4c/	8C/L	.	8cc\	.	8ee\
8C/	.	8e\	.	(>4ee\	.	4gg\	.	.	.	8C/	.	4ee\	.	4gg\
8C/	.	8e\	.	.	.	.	.	4CC/	4c/	8C/	.	.	.	.
8C/J	.	8e\J	.	4cc\	.	4ee\	.	.	.	8C/J	.	4cc\	.	4ee\
8C/L	.	8e\L	.	.	.	.	.	4CC/	4c/	8C/L	.	.	.	.
8C/	.	8e\	.	4ee\)	.	4gg\	.	.	.	8C/	.	4ee\	.	4gg\
8C/	.	8e\	.	.	.	.	.	4CC/	4c/	8C/	.	.	.	.
8C/J	.	8e\J	.	8cc\	.	8ee\	.	.	.	8C/J	.	8cc\	.	8ee\
=85	=85	=85	=85	=85	=85	=85	=85	=85	=85	=85	=85	=85	=85	=85
8C/L	.	8e\	.	8cc\	.	8ee\	.	4CC/	4c/	8C/L	.	(>8cc\L	.	8ee\L
8C/	.	4g\	.	(>4ee\	.	(>4gg\	.	.	.	8C/	.	8ee\J)	.	8gg\J
8C/	.	.	.	.	.	.	.	4CC/	4c/	8C/	.	8r	.	8r
8C/J	.	4b-\	.	4gg\	.	4bb-\	.	.	.	8C/J	.	(>4gg\	.	4bb-\
8C/L	.	.	.	.	.	.	.	4CC/	4c/	8C/L	.	.	.	.
8C/	.	4cc\	.	4ee\)	.	4aa\)	.	.	.	8C/	.	4ff\)	.	4aa\
8C/	.	.	.	.	.	.	.	4CC/	4c/	8C/	.	.	.	.
8C/J	.	8b-\	.	8cc\	.	8gg\	.	.	.	8C/J	.	8ee\	.	8gg\
=86	=86	=86	=86	=86	=86	=86	=86	=86	=86	=86	=86	=86	=86	=86
8C/L	.	8a\L	.	8a/	.	8ff\	.	4CC/	4c/	8C/L	.	8a\	.	8ff\
8C/	.	8a\	.	(>4dd\	.	4aa\	.	.	.	8C/	.	4gg\	.	(>4aa\
8C/	.	8a\	.	.	.	.	.	4CC/	4c/	8C/	.	.	.	.
8C/J	.	8a\J	.	4a\	.	8ff\	.	.	.	8C/J	.	4a\	.	4ff\
*	*	*tremolo	*	*	*	*	*	*	*	*	*	*	*	*
8C/L	.	8a\L	.	.	.	8ff\	.	4CC/	4c/	8C/L	.	.	.	.
8C/	.	8a\	.	4cc\)	.	4aa\	.	.	.	8C/	.	4gg\	.	4aa\)
8C/	.	8a\	.	.	.	.	.	4CC/	4c/	8C/	.	.	.	.
8C/J	.	8a\J	.	8a/	.	8ff\	.	.	.	8C/J	.	8a\	.	8ff\
!	!	!	!	!	!	!	!	!	!	!	!	!	!	!LO:LB:g=original
=87	=87	=87	=87	=87	=87	=87	=87	=87	=87	=87	=87	=87	=87	=87
*	*	*^	*	*	*	*	*	*	*	*	*	*	*	*
8C/L	.	8a\	2ryy	.	(>8a\	.	8ff\	.	4CC/	4c/	8C/L	.	8a\L	.	8ff\L
8C/	.	4cc\	.	.	4ff\	.	(>4aa\	.	.	.	8C/	.	8ff\J	.	8aa\J
8C/	.	.	.	.	.	.	.	.	4CC/	4c/	8C/	.	8r	.	8r
8C/J	.	4f\	.	.	4aa\	.	4ccc\	.	.	.	8C/J	.	(>4aa\	.	4ccc\
8C/L	.	.	4ryy	.	.	.	.	.	4CC/	4c/	8C/L	.	.	.	.
8C/	.	4cc\	.	.	4gg\)	.	4bb-\)	.	.	.	8C/	.	4gg\	.	4bb-\
8C/	.	.	8ryy	.	.	.	.	.	4CC/	4c/	8C/	.	.	.	.
8C/J	.	8a/	8f\	.	8ff\	.	8aa\	.	.	.	8C/J	.	8ff\)	.	8aa\
!	!	!	!	!	!	!	!	!	!LO:LB:g=original	!	!	!	!	!	!
!	!	!	!	!	!LO:PB:g=original	!	!LO:LB:g=original	!	!	!	!	!	!LO:LB:g=original	!	!
*	*	*v	*v	*	*	*	*	*	*	*	*	*	*	*	*
=88	=88	=88	=88	=88	=88	=88	=88	=88	=88	=88	=88	=88	=88	=88
8C/L	.	8e\L	.	8cc\	.	8ee\	.	4EE/	4c/	8C/L	.	8cc\	.	8ee\
8C/	.	8e\	.	(>4ee\	.	4gg\	.	.	.	8C/	.	4ee\	.	4gg\
8C/	.	8e\	.	.	.	.	.	4EE/	4c/	8C/	.	.	.	.
8C/J	.	8e\J	.	4cc\	.	4ee\	.	.	.	8C/J	.	4cc\	.	4ee\
8C/L	.	8e\L	.	.	.	.	.	4EE/	4c/	8C/L	.	.	.	.
8C/	.	8e\	.	4ee\)	.	4gg\	.	.	.	8C/	.	4ee\	.	4gg\
8C/	.	8e\	.	.	.	.	.	4EE/	4c/	8C/	.	.	.	.
8C/J	.	8e\J	.	8cc\	.	8ee\	.	.	.	8C/J	.	8cc\	.	8ee\
=89	=89	=89	=89	=89	=89	=89	=89	=89	=89	=89	=89	=89	=89	=89
8C/L	.	(>8e\	.	8cc\	.	8ee\	.	4EE/	4c/	8C/L	.	8cc\L	.	8ee\L
8C/	.	4g\	.	(>4ee\	.	4gg\	.	.	.	8C/	.	8ee\J	.	8gg\J
8C/	.	.	.	.	.	.	.	4EE/	4c/	8C/	.	8r	.	8r
8C/J	.	4b-\	.	4gg\	.	4bb-\	.	.	.	8C/J	.	4gg\	.	4bb-\
8C/L	.	.	.	.	.	.	.	4EE/	4c/	8C/L	.	.	.	.
8C/	.	4cc\	.	4ff\)	.	4aa\	.	.	.	8C/	.	4ff\	.	4aa\
8C/	.	.	.	.	.	.	.	4EE/	4c/	8C/	.	.	.	.
8C/J	.	8b-\)	.	8ee\	.	8gg\	.	.	.	8C/J	.	8ee\	.	8gg\
=90	=90	=90	=90	=90	=90	=90	=90	=90	=90	=90	=90	=90	=90	=90
*	*	*	*	*^	*	*^	*	*	*	*	*	*	*	*
*	*	*	*	*	*	*	*	*	*	*clefG2	*	*	*	*	*	*
!LO:TX:a:t=P:problem=mixed beam	!	!	!	!	!	!	!	!	!	!	!	!LO:TX:a:t=P:problem=mixed beam	!	!	!	!
8FF/L	.	8a\L	.	8ff/	8a\	.	8ff/	8a\	.	4A/	4f\	8FF/L	.	8a/	.	8ff\
8F\	.	8f\	.	4ff/	4a\	.	4ff/	4a\	.	.	.	8F\	.	4a/	.	4ff\
8E\	.	8e\	.	.	.	.	.	.	.	2A/	2f\	8E\	.	.	.	.
8D\J	.	8d\J	.	4ff/	4a\	.	4ff/	4a\	.	.	.	8D\J	.	4a/	.	4ff\
!	!	!LO:LB:g=original	!	!	!	!	!	!	!	!	!	!	!	!	!	!
8C/L	.	8c/L	.	.	.	.	.	.	.	.	.	8C/L	.	.	.	.
8AA/	.	8A/	.	4ff/	4a\	.	4ff/	4a\	.	.	.	8AA/	.	4a/	.	4ff\
8BB-/	.	8B-/	.	.	.	.	.	.	.	4A/	4f\	8BB-/	.	.	.	.
8C/J	.	8c/J	.	8ff/	8a\	.	8ff/	8a\	.	.	.	8C/J	.	8a/	.	8ff\
!LO:LB:g=original	!	!	!	!	!	!	!	!	!	!	!LO:LB:g=original	!	!	!	!	!
=91	=91	=91	=91	=91	=91	=91	=91	=91	=91	=91	=91	=91	=91	=91	=91	=91
8D\L	.	8d\L	.	8ff/	8a\	.	8ff/	8a\	.	4A/	4f\	8D\L	.	8a/	.	8ff\
8F\	.	8f\	.	4ff/	4a\	.	4ff/	4a\	.	.	.	8F\	.	4a/	.	4ff\
8E\	.	8e\	.	.	.	.	.	.	.	2A/	2f\	8E\	.	.	.	.
8D\J	.	8d\J	.	4ff/	4a\	.	4ff/	4a\	.	.	.	8D\J	.	4a/	.	4ff\
8C/L	.	8c/L	.	.	.	.	.	.	.	.	.	8C/L	.	.	.	.
8AA/	.	8A/	.	4ff/	4a\	.	4ff/	4a\	.	.	.	8AA/	.	4a/	.	4ff\
8BB-/	.	8B-/	.	.	.	.	.	.	.	4A/	4f\	8BB-/	.	.	.	.
8C/J	.	8c/J	.	8ff/	8a\	.	8ff/	8a\	.	.	.	8C/J	.	8a/	.	8ff\
!	!	!	!	!	!	!	!	!	!	!	!	!LO:LB:g=original	!	!	!	!
=92	=92	=92	=92	=92	=92	=92	=92	=92	=92	=92	=92	=92	=92	=92	=92	=92
4D\	.	4d\	.	8ff/	8a\	.	8ff/	8a\	.	4A/	4f\	4D\	.	4a/	.	4ff\
.	.	.	.	(>8ff'\L	8ryy	.	(>8ff'\L	8ryy	.	.	.	.	.	.	.	.
4r	.	4r	.	8ee'\	4ryy	.	8ee'\	4ryy	.	4r	4r	4r	.	4r	.	4r
.	.	.	.	8dd'\J	.	.	8dd'\J	.	.	.	.	.	.	.	.	.
2r	.	2r	.	8cc'\L	2ryy	.	8cc'\L	2ryy	.	2re	2r	2r	.	2r	.	2r
.	.	.	.	8b-'\	.	.	8b-'\	.	.	.	.	.	.	.	.	.
.	.	.	.	8a'\	.	.	8a'\	.	.	.	.	.	.	.	.	.
.	.	.	.	8g'\J)	.	.	8g'\J)	.	.	.	.	.	.	.	.	.
*	*	*	*	*v	*v	*	*	*	*	*	*	*	*	*	*	*
*	*	*	*	*	*	*v	*v	*	*	*	*	*	*	*	*
=93	=93	=93	=93	=93	=93	=93	=93	=93	=93	=93	=93	=93	=93	=93
8C/L	.	8cc\L	.	4.f/	.	2f/	.	4c/	4c/	8C/L	.	2f/	.	2f/
8C/	.	8cc\	.	.	.	.	.	.	.	8C/	.	.	.	.
8C/	.	8cc\	.	.	.	.	.	4c/	4c/	8C/	.	.	.	.
8C/J	.	8cc\J	.	32c/LLL	.	.	.	.	.	8C/J	.	.	.	.
.	.	.	.	32d/	.	.	.	.	.	.	.	.	.	.
.	.	.	.	32e/	.	.	.	.	.	.	.	.	.	.
.	.	.	.	32f/JJJ	.	.	.	.	.	.	.	.	.	.
8C/L	.	8e\L	.	2gT/	.	2gT/	.	4c/	4c/	8C/L	.	2em/	.	2gM/
8C/	.	8e\	.	.	.	.	.	.	.	8C/	.	.	.	.
8C/	.	8e\	.	.	.	.	.	4c/	4c/	8C/	.	.	.	.
8C/J	.	8e\J	.	.	.	.	.	.	.	8C/J	.	.	.	.
!	!	!	!	!	!	!LO:PB:g=original	!	!	!	!	!	!	!	!LO:LB:g=original
=94	=94	=94	=94	=94	=94	=94	=94	=94	=94	=94	=94	=94	=94	=94
*	*	*	*	*^	*	*^	*	*	*	*	*	*	*	*
!LO:TX:a:t=P:problem=mixed beam	!	!	!	!	!	!	!	!	!	!	!	!LO:TX:a:t=P:problem=mixed beam	!	!	!	!
8FF/L	.	8f\L	.	8f/	8ryy	.	8f/	8ryy	.	4A/	4f\	8FF/L	.	8f/	.	8a/
8F\	.	8f\	.	4ff/	4a\	.	4ff/	4a\	.	.	.	8F\	.	4a/	.	4ff\
8E\	.	8e\	.	.	.	.	.	.	.	2A/	2f\	8E\	.	.	.	.
8D\J	.	8d\J	.	4ff/	4a\	.	4ff/	4a\	.	.	.	8D\J	.	4a/	.	4ff\
8C/L	.	8c\L	.	.	.	.	.	.	.	.	.	8C/L	.	.	.	.
!	!	!	!	!LO:LB:g=original	!LO:LB:g=original	!	!	!	!	!	!	!	!	!	!	!
8AA/	.	8A\	.	4ff/	4a\	.	4ff/	4a\	.	.	.	8AA/	.	4a/	.	4ff\
8BB-/	.	8B-\	.	.	.	.	.	.	.	4A/	4f\	8BB-/	.	.	.	.
8C/J	.	8c\J	.	8ff/	8a\	.	8ff/	8a\	.	.	.	8C/J	.	8a/	.	8ff\
!	!	!	!	!	!	!	!	!	!	!	!	!	!	!LO:LB:g=original	!	!
=95	=95	=95	=95	=95	=95	=95	=95	=95	=95	=95	=95	=95	=95	=95	=95	=95
8D\L	.	8d\L	.	8ff/	8a\	.	8ff/	8a\	.	4A/	4f\	8D\L	.	8a/	.	8ff\
8F\	.	8f\	.	4ff/	4a\	.	4ff/	4a\	.	.	.	8F\	.	4a/	.	4ff\
8E\	.	8e\	.	.	.	.	.	.	.	2A/	2f\	8E\	.	.	.	.
8D\J	.	8d\J	.	4ff/	4a\	.	4ff/	4a\	.	.	.	8D\J	.	4a/	.	4ff\
8C/L	.	8c/L	.	.	.	.	.	.	.	.	.	8C/L	.	.	.	.
8AA/	.	8A/	.	4ff/	4a\	.	4ff/	4a\	.	.	.	8AA/	.	4a/	.	4ff\
8BB-/	.	8B-/	.	.	.	.	.	.	.	4A/	4f\	8BB-/	.	.	.	.
8C/J	.	8c/J	.	8ff/	8a\	.	8ff/	8a\	.	.	.	8C/J	.	8a/	.	8ff\
!	!	!	!	!	!	!	!	!	!	!LO:LB:g=original	!	!	!	!	!	!
*	*	*	*	*	*	*	*v	*v	*	*	*	*	*	*	*	*
=96	=96	=96	=96	=96	=96	=96	=96	=96	=96	=96	=96	=96	=96	=96	=96
!	!	!	!	!	!	!	!	!LO:DY:a:rj	!	!	!	!	!	!	!
4D\	.	4d\	.	8ff/	8a\	.	8ff\	p	4A/	4f\	4D\	.	4a/	.	4ff\
.	.	.	.	(>8ff'\L	2..ryy	.	(>8ff'\L	.	.	.	.	.	.	.	.
4r	.	4r	.	8ee'\	.	.	8ee'\	.	4r	4r	4r	.	4r	.	4r
.	.	.	.	8dd'\J	.	.	8dd'\J	.	.	.	.	.	.	.	.
2r	.	2r	.	8cc'\L	.	.	8cc'\L	.	2re	2r	2r	.	2r	.	2r
.	.	.	.	8b-'\	.	.	8b-'\	.	.	.	.	.	.	.	.
.	.	.	.	8a'\	.	.	8a'\	.	.	.	.	.	.	.	.
.	.	.	.	8g'\J)	.	.	8g'\J)	.	.	.	.	.	.	.	.
*	*	*	*	*v	*v	*	*	*	*	*	*	*	*	*	*
=97	=97	=97	=97	=97	=97	=97	=97	=97	=97	=97	=97	=97	=97	=97
!	!	!	!	!	!	!	!LO:DY:a:t=for	!	!	!	!	!	!	!
8C/L	.	8cc\L	.	4.f/	.	4.f/	f	4c/	4c/	8C/L	.	2f/	.	2e/
8C/	.	8cc\	.	.	.	.	.	.	.	8C/	.	.	.	.
8C/	.	8cc\	.	.	.	.	.	4c/	4c/	8C/	.	.	.	.
8C/J	.	8cc\J	.	32c/LLL	.	(<32c/LLL	.	.	.	8C/J	.	.	.	.
.	.	.	.	32d/	.	32d/	.	.	.	.	.	.	.	.
.	.	.	.	32e/	.	32e/	.	.	.	.	.	.	.	.
.	.	.	.	32f/JJJ	.	32f/JJJ)	.	.	.	.	.	.	.	.
8C/L	.	8e\L	.	2gT/	.	2gT/	.	4c/	4c/	8C/L	.	2e/	.	2gM/
8C/	.	8e\	.	.	.	.	.	.	.	8C/	.	.	.	.
8C/	.	8e\	.	.	.	.	.	4c/	4c/	8C/	.	.	.	.
8C/J	.	8e\J	.	.	.	.	.	.	.	8C/J	.	.	.	.
*	*	*	*	*	*	*	*	*	*	*Xtremolo	*	*	*	*
*	*	*Xtremolo	*	*	*	*	*	*	*	*	*	*	*	*
*Xtremolo	*	*	*	*	*	*	*	*	*	*	*	*	*	*
=98	=98	=98	=98	=98	=98	=98	=98	=98	=98	=98	=98	=98	=98	=98
*	*	*	*	*^	*	*^	*	*	*	*	*	*	*	*
!	!	!	!	!	!	!	!	!	!	!LO:TX:a:i:t=Solo	!LO:TX:a:i:t=Solo	!	!	!	!	!
4FF/	.	4f\	.	4f/	2.ryy	.	4f/	2.ryy	.	4A/	4f\	4F\	.	4f/	.	4f/
4r	.	4r	.	4r	.	.	4r	.	.	8f\L	8a\L	4r	.	4r	.	4r
.	.	.	.	.	.	.	.	.	.	8a\J	8cc\J	.	.	.	.	.
4r	.	4r	.	4r	.	.	4r	.	.	4g\	4b-\	4r	.	4r	.	4r
4C/	.	4c\	.	4ee/	4cc\	.	4ee/	4cc\	.	4c/	4a\	4C/	.	4b-/	.	4ee\
!	!	!	!	!	!	!	!	!	!	!	!LO:LB:g=original	!	!	!	!	!
=99	=99	=99	=99	=99	=99	=99	=99	=99	=99	=99	=99	=99	=99	=99	=99	=99
4F\	.	4f\	.	4ff/	4a\	.	4ff/	4a\	.	4A/	4f\	4F\	.	4a/	.	4ff\
4r	.	4r	.	4r	4ryy	.	4r	4ryy	.	8f\L	8a\L	4r	.	4r	.	4r
.	.	.	.	.	.	.	.	.	.	8a\J	8cc\J	.	.	.	.	.
.	.	.	.	.	.	.	.	.	.	8qqa/	.	.	.	.	.	.
4r	.	4r	.	4r	4ryy	.	4r	4ryy	.	4g\	4b-\	4r	.	4r	.	4r
4C/	.	4c/	.	4ee/	4a\	.	4ee/	4cc\	.	4c/	4g\	4C/	.	4b-/	.	4ee\
=100	=100	=100	=100	=100	=100	=100	=100	=100	=100	=100	=100	=100	=100	=100	=100	=100
4FF/	.	4F/	.	4ff/	4a\	.	4ff/	4a\	.	4A/	4f\	4FF/	.	4a/	.	4ff\
4r	.	4r	.	4r	4ryy	.	4r	4ryy	.	4r	4r	4r	.	4r	.	4r
!	!	!LO:TX:b:i:t=finis	!	!	!	!	!	!	!	!	!	!LO:TX:b:i:t=Votti Andante	!	!	!	!
2r	.	2r	.	2r	2ryy	.	2r	2ryy	.	2r	2r	2r	.	2r	.	2r
*	*	*	*	*v	*v	*	*	*	*	*	*	*	*	*	*	*
*	*	*	*	*	*	*v	*v	*	*	*	*	*	*	*	*
=:|!	=:|!	=:|!	=:|!	=:|!	=:|!	=:|!	=:|!	=:|!	=:|!	=:|!	=:|!	=:|!	=:|!	=:|!
*-	*-	*-	*-	*-	*-	*-	*-	*-	*-	*-	*-	*-	*-	*-
!!!system-decoration: (g1,g2,g3,s9)
!!!RDF**kern: | = vertical stroke
!!!RDF**kern: > = above
!!!RDF**kern: < = below
!!!AIN: 1 cbass 2 cor 1 fagot 2 oboe 1 viola 2 violn
!!!ENC: Tomasz Grochalski
!!!END: 2020-07-20
!!!EED: Antoni Szymański
!!!EST: 2022-02-26
